;FLAVOR:RepRap
;TIME:1271
;Filament used: 2.21416m, 0m
;Layer height: 0.24
;MINX:-22.986
;MINY:-22.147
;MINZ:0.24
;MAXX:22.986
;MAXY:22.147
;MAXZ:16.84
;Generated with Cura_SteamEngine 4.6.2
T0
M190 S65
M104 S220
M109 S220
M82 ;absolute extrusion mode
;=== SeeMeCNC PRINTER SETTINGS =========
;=== OPTIMIZED FOR CURA 4.6.2  =========
M203 Z10000  ;===PRINTER BEGIN G-CODE===
G28
G1 X0 Y-130 Z0.3 F8000
G1 F200 E3
G92 E0       ;==========================
M82 ;absolute extrusion mode
G91           ;=======EXTRUDER 1 BEGIN GCODE=======
G1 Z1 F10000
G90
G1 X0 Y-130 F10000
T0 P0         ;=== SELECT TOOL DO NOT RUN MACROS ==
G92 E0
G1 E145 F4000
G92 E0
G1 E15 F500
G92 E0        ;====================================
M83 ;relative extrusion mode
M83 ;relative extrusion mode
G1 F3600 E-6
;LAYER_COUNT:66
;LAYER:0
M107
G1 F3600 Z1.24
G0 F15000 X-8.067 Y-21.352 Z1.24
;TYPE:SKIRT
G1 F3600 Z0.24
G1 F3600 E6
G1 F2700 X-5.319 Y-21.198 E0.19224
G1 X-2.571 Y-21.12 E0.19201
G1 X0.138 Y-21.12 E0.18921
G1 X2.879 Y-21.198 E0.19153
G1 X5.639 Y-21.355 E0.19309
G1 X6.632 Y-21.429 E0.06955
G1 X7.201 Y-21.447 E0.03976
G1 X15.737 Y-21.447 E0.59621
G1 X16.438 Y-21.437 E0.04897
G1 X16.953 Y-21.389 E0.03613
G1 X17.455 Y-21.263 E0.03615
G1 X17.931 Y-21.062 E0.03609
G1 X18.371 Y-20.789 E0.03617
G1 X18.763 Y-20.452 E0.03611
G1 X19.099 Y-20.058 E0.03617
G1 X19.37 Y-19.618 E0.03609
G1 X19.611 Y-19.008 E0.04581
G1 X19.964 Y-17.772 E0.08978
G1 X20.759 Y-15.158 E0.19084
G1 X21.746 Y-12.231 E0.21575
G1 X22.079 Y-11.288 E0.06985
G1 X22.214 Y-10.788 E0.03617
G1 X22.283 Y-9.977 E0.05685
G1 X22.286 Y-1.294 E0.60648
G1 X22.276 Y-.596 E0.04876
G1 X22.228 Y-0.081 E0.03613
G1 X22.103 Y0.419 E0.036
G1 X21.857 Y1.154 E0.05414
G1 X21.019 Y3.76 E0.1912
G1 X20.252 Y6.401 E0.19209
G1 X19.628 Y8.776 E0.17151
G1 X19.458 Y9.265 E0.03616
G1 X19.216 Y9.722 E0.03612
G1 X18.905 Y10.135 E0.03611
G1 X18.535 Y10.497 E0.03615
G1 X18.113 Y10.796 E0.03612
G1 X17.651 Y11.028 E0.03611
G1 X16.856 Y11.283 E0.05831
G1 X15.104 Y11.768 E0.12697
G1 X12.52 Y12.562 E0.18881
G1 X9.902 Y13.447 E0.19302
G1 X7.325 Y14.401 E0.19193
G1 X4.822 Y15.409 E0.18847
G1 X2.286 Y16.516 E0.19327
G1 X-.175 Y17.672 E0.18991
G1 X-2.614 Y18.904 E0.19085
G1 X-5.009 Y20.2 E0.1902
G1 X-6.443 Y21.008 E0.11496
G1 X-6.912 Y21.225 E0.03609
G1 X-7.41 Y21.367 E0.03617
G1 X-7.947 Y21.431 E0.03777
G1 X-18.272 Y21.447 E0.72116
G1 X-18.97 Y21.438 E0.04876
G1 X-19.485 Y21.391 E0.03612
G1 X-19.987 Y21.266 E0.03613
G1 X-20.464 Y21.065 E0.03615
G1 X-20.904 Y20.793 E0.03613
G1 X-21.297 Y20.456 E0.03616
G1 X-21.633 Y20.063 E0.03611
G1 X-21.905 Y19.623 E0.03613
G1 X-22.106 Y19.146 E0.03615
G1 X-22.231 Y18.644 E0.03613
G1 X-22.285 Y17.846 E0.05586
G1 X-22.286 Y8.573 E0.64768
G1 X-22.27 Y7.466 E0.07733
G1 X-22.26 Y6.076 E0.09709
G1 X-22.26 Y-17.468 E1.64446
G1 X-22.251 Y-18.133 E0.04645
G1 X-22.204 Y-18.649 E0.03619
G1 X-22.078 Y-19.15 E0.03608
G1 X-21.877 Y-19.627 E0.03615
G1 X-21.604 Y-20.067 E0.03617
G1 X-21.267 Y-20.459 E0.03611
G1 X-20.874 Y-20.795 E0.03611
G1 X-20.434 Y-21.067 E0.03613
G1 X-19.957 Y-21.267 E0.03613
G1 X-19.455 Y-21.392 E0.03613
G1 X-18.674 Y-21.446 E0.05468
G1 X-10.045 Y-21.447 E0.6027
G1 X-9.338 Y-21.437 E0.04939
G1 X-8.067 Y-21.352 E0.08897
G0 F15000 X-8.047 Y-22.053
G1 F2700 X-5.259 Y-21.896 E0.19504
G1 X-2.587 Y-21.82 E0.1867
G1 X0.154 Y-21.82 E0.19145
G1 X2.854 Y-21.896 E0.18866
G1 X5.549 Y-22.05 E0.18854
G1 X6.58 Y-22.127 E0.07221
G1 X7.087 Y-22.145 E0.03543
G1 X15.747 Y-22.147 E0.60487
G1 X16.448 Y-22.137 E0.04897
G1 X17.015 Y-22.089 E0.03974
G1 X17.569 Y-21.962 E0.0397
G1 X18.1 Y-21.758 E0.03973
G1 X18.598 Y-21.482 E0.03977
G1 X19.052 Y-21.139 E0.03974
G1 X19.453 Y-20.736 E0.03971
G1 X19.794 Y-20.281 E0.03971
G1 X20.068 Y-19.782 E0.03976
G1 X20.284 Y-19.2 E0.04336
G1 X20.625 Y-18.006 E0.08673
G1 X21.429 Y-15.364 E0.19289
G1 X22.409 Y-12.455 E0.2144
G1 X22.739 Y-11.521 E0.06919
G1 X22.891 Y-10.973 E0.03972
G1 X22.967 Y-10.349 E0.04391
G1 X22.986 Y-9.83 E0.03627
G1 X22.986 Y-1.284 E0.59691
G1 X22.976 Y-.586 E0.04876
G1 X22.928 Y-0.019 E0.03974
G1 X22.767 Y0.641 E0.04745
G1 X22.536 Y1.331 E0.05082
G1 X21.681 Y3.99 E0.19509
G1 X20.929 Y6.577 E0.18817
G1 X20.305 Y8.954 E0.17165
G1 X20.122 Y9.493 E0.03976
G1 X19.866 Y10 E0.03967
G1 X19.541 Y10.467 E0.03974
G1 X19.153 Y10.884 E0.03978
G1 X18.712 Y11.242 E0.03967
G1 X18.224 Y11.535 E0.03976
G1 X17.556 Y11.803 E0.05027
G1 X17.058 Y11.953 E0.03633
G1 X15.286 Y12.444 E0.12843
G1 X12.729 Y13.23 E0.18684
G1 X10.127 Y14.11 E0.19185
G1 X7.607 Y15.043 E0.18769
G1 X5.062 Y16.068 E0.19163
G1 X2.609 Y17.138 E0.18692
G1 X0.125 Y18.305 E0.19169
G1 X-2.292 Y19.526 E0.18914
G1 X-4.681 Y20.818 E0.1897
G1 X-6.101 Y21.619 E0.11387
G1 X-6.616 Y21.861 E0.03974
G1 X-7.159 Y22.028 E0.03968
G1 X-7.92 Y22.131 E0.05364
G1 X-18.281 Y22.147 E0.72368
G1 X-18.979 Y22.138 E0.04876
G1 X-19.546 Y22.09 E0.03974
G1 X-20.101 Y21.964 E0.03975
G1 X-20.632 Y21.761 E0.03971
G1 X-21.13 Y21.486 E0.03973
G1 X-21.585 Y21.144 E0.03976
G1 X-21.987 Y20.742 E0.03971
G1 X-22.328 Y20.287 E0.03971
G1 X-22.603 Y19.788 E0.0398
G1 X-22.805 Y19.257 E0.03968
G1 X-22.93 Y18.702 E0.03974
G1 X-22.976 Y18.197 E0.03542
G1 X-22.986 Y8.562 E0.67297
G1 X-22.97 Y7.455 E0.07733
G1 X-22.96 Y6.071 E0.09667
G1 X-22.96 Y-17.478 E1.64481
G1 X-22.951 Y-18.143 E0.04645
G1 X-22.903 Y-18.71 E0.03974
G1 X-22.776 Y-19.264 E0.0397
G1 X-22.573 Y-19.796 E0.03977
G1 X-22.298 Y-20.293 E0.03967
G1 X-21.955 Y-20.748 E0.0398
G1 X-21.553 Y-21.149 E0.03966
G1 X-21.098 Y-21.491 E0.03976
G1 X-20.599 Y-21.765 E0.03976
G1 X-20.067 Y-21.966 E0.03972
G1 X-19.512 Y-22.092 E0.03975
G1 X-18.694 Y-22.145 E0.05725
G1 X-10.035 Y-22.147 E0.6048
G1 X-9.328 Y-22.137 E0.04939
G1 X-8.047 Y-22.053 E0.08967
G1 F3600 E-6
G1 F3600 Z1.24
;MESH:51502 PCB BRACKET.STL
G0 F15000 X15.786 Y-3.785 Z1.24
;TYPE:WALL-INNER
G1 F3600 Z0.24
G1 F3600 E6
G1 F2700 X13.246 Y-3.785 E0.17741
G1 X13.246 Y4.788 E0.59879
G1 X-15.76 Y4.788 E2.02596
G1 X-15.76 Y-14.947 E1.37842
G1 X-12.535 Y-14.947 E0.22525
G1 X-12.535 Y-12.407 E0.17741
G1 X10.021 Y-12.407 E1.57545
G1 X10.021 Y-14.947 E0.17741
G1 X13.246 Y-14.947 E0.22525
G1 X13.246 Y-7.01 E0.55437
G1 X15.786 Y-7.01 E0.17741
G1 X15.786 Y-3.785 E0.22525
G0 F15000 X16.486 Y-3.085
G1 F2700 X13.946 Y-3.085 E0.17741
G1 X13.946 Y5.488 E0.59879
G1 X-16.46 Y5.488 E2.12375
G1 X-16.46 Y-15.647 E1.4762
G1 X-11.835 Y-15.647 E0.32304
G1 X-11.835 Y-13.107 E0.17741
G1 X9.321 Y-13.107 E1.47767
G1 X9.321 Y-15.647 E0.17741
G1 X13.946 Y-15.647 E0.32304
G1 X13.946 Y-7.71 E0.55437
G1 X16.486 Y-7.71 E0.17741
G1 X16.486 Y-3.085 E0.32304
G1 F3600 E-6
G1 F3600 Z1.24
G0 F15000 X15.346 Y-1.685 Z1.24
G1 F3600 Z0.24
G1 F3600 E6
G1 F2700 X15.346 Y6.888 E0.59879
G1 X-17.86 Y6.888 E2.31932
G1 X-17.86 Y-17.047 E1.67177
G1 X-10.435 Y-17.047 E0.51861
G1 X-10.435 Y-14.507 E0.17741
G1 X7.921 Y-14.507 E1.2821
G1 X7.921 Y-17.047 E0.17741
G1 X15.346 Y-17.047 E0.51861
G1 X15.346 Y-9.11 E0.55437
G1 X17.886 Y-9.11 E0.17741
G1 X17.886 Y-1.685 E0.51861
G1 X15.346 Y-1.685 E0.17741
G0 F15000 X14.646 Y-2.385
G1 F2700 X14.646 Y6.188 E0.59879
G1 X-17.16 Y6.188 E2.22153
G1 X-17.16 Y-16.347 E1.57399
G1 X-11.135 Y-16.347 E0.42082
G1 X-11.135 Y-13.807 E0.17741
G1 X8.621 Y-13.807 E1.37988
G1 X8.621 Y-16.347 E0.17741
G1 X14.646 Y-16.347 E0.42082
G1 X14.646 Y-8.41 E0.55437
G1 X17.186 Y-8.41 E0.17741
G1 X17.186 Y-2.385 E0.42082
G1 X14.646 Y-2.385 E0.17741
G1 F3600 E-6
G1 F3600 Z1.24
G0 F15000 X16.046 Y-.985 Z1.24
;TYPE:WALL-OUTER
G1 F3600 Z0.24
G1 F3600 E6
G1 F2700 X16.046 Y7.588 E0.59879
G1 X-18.409 Y7.588 E2.40655
G1 X-18.56 Y7.595 E0.01056
G1 X-18.56 Y-17.747 E1.77004
G1 X-9.735 Y-17.747 E0.61639
G1 X-9.735 Y-15.207 E0.17741
G1 X7.221 Y-15.207 E1.18431
G1 X7.221 Y-17.747 E0.17741
G1 X16.046 Y-17.747 E0.61639
G1 X16.046 Y-9.81 E0.55437
G1 X18.586 Y-9.81 E0.17741
G1 X18.586 Y-.985 E0.61639
G1 X16.046 Y-.985 E0.17741
G0 F15000 X16.046 Y-.635
G0 X15.276 Y-.635
G1 F3600 E-6
G1 F3600 Z1.24
G0 F15000 X-9.129 Y17.047 Z1.24
;TYPE:WALL-INNER
G1 F3600 Z0.24
G1 F3600 E6
G1 F2700 X-9.478 Y17.047 E0.02438
G1 X-17.886 Y17.047 E0.58727
G1 X-17.886 Y15.973 E0.07501
G1 X-9.13 Y15.973 E0.61157
G1 X-9.129 Y16.698 E0.05064
G1 X-9.129 Y17.047 E0.01577
G0 F15000 X-8.779 Y17.747
;TYPE:WALL-OUTER
G1 F2700 X-18.586 Y17.747 E0.68498
G1 X-18.586 Y15.273 E0.1728
G1 X-8.43 Y15.273 E0.70936
G1 X-8.429 Y17.397 E0.14835
G1 X-8.429 Y17.747 E0.02445
G1 X-8.779 Y17.747 E0.01582
G0 F15000 X-9.129 Y17.747
G0 X-9.2 Y16.976
G1 F3600 E-6
G1 F3600 Z1.24
G0 F15000 X-15.07 Y4.098 Z1.24
;TYPE:SKIN
G1 F3600 Z0.24
G1 F3600 E6
G1 F2700 X-15.07 Y-14.257 E1.28203
G1 X-13.225 Y-14.257 E0.12887
G1 X-13.225 Y-11.717 E0.17741
G1 X10.711 Y-11.717 E1.67184
G1 X10.711 Y-14.257 E0.17741
G1 X12.556 Y-14.257 E0.12887
G1 X12.556 Y-6.32 E0.55437
G1 X15.096 Y-6.32 E0.17741
G1 X15.096 Y-4.475 E0.12887
G1 X12.556 Y-4.475 E0.17741
G1 X12.556 Y4.098 E0.59879
G1 X-15.07 Y4.098 E1.92957
G0 F15000 X-14.859 Y2.959
G1 F2700 X-13.931 Y3.887 E0.09167
G0 F15000 X-12.941 Y3.887
G1 F2700 X-14.859 Y1.969 E0.18946
G0 F15000 X-14.859 Y0.98
G1 F2700 X-11.951 Y3.887 E0.2872
G0 F15000 X-10.961 Y3.887
G1 F2700 X-14.859 Y-0.009 E0.38494
G0 F15000 X-14.859 Y-.999
G1 F2700 X-9.971 Y3.887 E0.48273
G0 F15000 X-8.981 Y3.887
G1 F2700 X-14.859 Y-1.989 E0.58052
G0 F15000 X-14.859 Y-2.979
G1 F2700 X-7.991 Y3.887 E0.67831
G0 F15000 X-7.001 Y3.887
G1 F2700 X-14.859 Y-3.969 E0.7761
G0 F15000 X-14.859 Y-4.959
G1 F2700 X-6.011 Y3.887 E0.87389
G0 F15000 X-5.021 Y3.887
G1 F2700 X-14.859 Y-5.949 E0.97167
G0 F15000 X-14.859 Y-6.939
G1 F2700 X-4.031 Y3.887 E1.06946
G0 F15000 X-3.041 Y3.887
G1 F2700 X-14.859 Y-7.929 E1.16725
G0 F15000 X-14.859 Y-8.919
G1 F2700 X-2.052 Y3.887 E1.26499
G0 F15000 X-1.062 Y3.887
G1 F2700 X-14.859 Y-9.909 E1.36278
G0 F15000 X-14.859 Y-10.899
G1 F2700 X-0.072 Y3.887 E1.46057
G0 F15000 X0.917 Y3.887
G1 F2700 X-14.859 Y-11.889 E1.55831
G0 F15000 X-14.859 Y-12.879
G1 F2700 X1.907 Y3.887 E1.6561
G0 F15000 X2.897 Y3.887
G1 F2700 X-12.495 Y-11.506 E1.52043
G0 F15000 X-11.506 Y-11.506
G1 F2700 X3.887 Y3.887 E1.52048
G0 F15000 X4.877 Y3.887
G1 F2700 X-10.516 Y-11.506 E1.52048
G0 F15000 X-9.526 Y-11.506
G1 F2700 X5.867 Y3.887 E1.52048
G0 F15000 X6.857 Y3.887
G1 F2700 X-8.536 Y-11.506 E1.52048
G0 F15000 X-7.546 Y-11.506
G1 F2700 X7.847 Y3.887 E1.52048
G0 F15000 X8.837 Y3.887
G1 F2700 X-6.556 Y-11.506 E1.52048
G0 F15000 X-5.566 Y-11.506
G1 F2700 X9.827 Y3.887 E1.52048
G0 F15000 X10.817 Y3.887
G1 F2700 X-4.576 Y-11.506 E1.52048
G0 F15000 X-3.586 Y-11.506
G1 F2700 X11.807 Y3.887 E1.52048
G0 F15000 X12.345 Y3.435
G1 F2700 X-2.596 Y-11.506 E1.47584
G0 F15000 X-1.606 Y-11.506
G1 F2700 X12.345 Y2.445 E1.37805
G0 F15000 X12.345 Y1.455
G1 F2700 X-.616 Y-11.506 E1.28026
G0 F15000 X0.373 Y-11.506
G1 F2700 X12.345 Y0.465 E1.18252
G0 F15000 X12.345 Y-.523
G1 F2700 X1.363 Y-11.506 E1.08482
G0 F15000 X2.353 Y-11.506
G1 F2700 X12.345 Y-1.513 E0.98703
G0 F15000 X12.345 Y-2.503
G1 F2700 X3.343 Y-11.506 E0.88924
G0 F15000 X4.333 Y-11.506
G1 F2700 X12.345 Y-3.493 E0.79146
G0 F15000 X12.345 Y-4.483
G1 F2700 X5.323 Y-11.506 E0.69367
G0 F15000 X6.313 Y-11.506
G1 F2700 X13.134 Y-4.684 E0.67381
G0 F15000 X14.124 Y-4.684
G1 F2700 X12.698 Y-6.11 E0.14086
G0 F15000 X12.346 Y-6.462
G1 F2700 X7.302 Y-11.506 E0.49823
G0 F15000 X8.292 Y-11.506
G1 F2700 X12.346 Y-7.452 E0.40044
G0 F15000 X12.346 Y-8.442
G1 F2700 X9.282 Y-11.506 E0.30265
G0 F15000 X10.272 Y-11.506
G1 F2700 X12.346 Y-9.432 E0.20486
G0 F15000 X12.346 Y-10.422
G1 F2700 X10.92 Y-11.848 E0.14086
G0 F15000 X10.92 Y-12.838
G1 F2700 X12.346 Y-11.412 E0.14086
G0 F15000 X12.346 Y-12.402
G1 F2700 X10.92 Y-13.828 E0.14086
G0 F15000 X11.692 Y-14.045
G1 F2700 X12.346 Y-13.392 E0.06455
G1 F3600 E-6
G1 F3600 Z1.24
G0 F15000 X13.688 Y-6.11 Z1.24
G1 F3600 Z0.24
G1 F3600 E6
G1 F2700 X14.885 Y-4.913 E0.11824
G0 F15000 X14.885 Y-5.903
G1 F2700 X14.678 Y-6.11 E0.02045
G1 F3600 E-6
G1 F3600 Z1.24
G0 F15000 X-13.434 Y-12.444 Z1.24
G1 F3600 Z0.24
G1 F3600 E6
G1 F2700 X-14.859 Y-13.869 E0.14076
G0 F15000 X-14.045 Y-14.045
G1 F2700 X-13.434 Y-13.434 E0.06035
G1 F3600 E-6
G1 F3600 Z1.24
G0 F15000 X-13.188 Y16.509 Z1.24
;TYPE:SKIN
G1 F3600 Z0.24
G1 F3600 E6
G1 F2700 X-12.693 Y16.509 E0.03562
G1 X-9.723 Y16.509 E0.21374
G1 X-9.447 Y16.29 E0.02536
G1 F3600 E-6
G1 F3600 Z1.24
G0 F15000 X-13.683 Y16.509 Z1.24
G1 F3600 Z0.24
G1 F3600 E6
G1 F2700 X-14.178 Y16.509 E0.03772
G1 X-17.148 Y16.509 E0.2263
G0 F15000 X-17.331 Y16.821
G1 F2700 X-17.66 Y16.492 E0.01625
G1 F3600 E-6
G1 F3600 Z1.24
;MESH:NONMESH
G0 F15000 X15.786 Y-3.785 Z1.24
;TIME_ELAPSED:52.137627
;LAYER:1
M140 S65
M106 S255
;MESH:51502 PCB BRACKET.STL
G0 X15.786 Y-3.785 Z1.48
;TYPE:WALL-INNER
G1 F3600 Z0.48
G1 F3600 E6
G1 F2700 X13.246 Y-3.785 E0.17741
G1 X13.246 Y4.788 E0.59879
G1 X-15.76 Y4.788 E2.02596
G1 X-15.76 Y-14.947 E1.37842
G1 X-12.535 Y-14.947 E0.22525
G1 X-12.535 Y-12.407 E0.17741
G1 X10.021 Y-12.407 E1.57545
G1 X10.021 Y-14.947 E0.17741
G1 X13.246 Y-14.947 E0.22525
G1 X13.246 Y-7.01 E0.55437
G1 X15.786 Y-7.01 E0.17741
G1 X15.786 Y-3.785 E0.22525
G0 F15000 X16.486 Y-3.085
G1 F2700 X13.946 Y-3.085 E0.17741
G1 X13.946 Y5.488 E0.59879
G1 X-16.46 Y5.488 E2.12375
G1 X-16.46 Y-15.647 E1.4762
G1 X-11.835 Y-15.647 E0.32304
G1 X-11.835 Y-13.107 E0.17741
G1 X9.321 Y-13.107 E1.47767
G1 X9.321 Y-15.647 E0.17741
G1 X13.946 Y-15.647 E0.32304
G1 X13.946 Y-7.71 E0.55437
G1 X16.486 Y-7.71 E0.17741
G1 X16.486 Y-3.085 E0.32304
G1 F3600 E-6
G1 F3600 Z1.48
G0 F15000 X15.346 Y-1.685 Z1.48
G1 F3600 Z0.48
G1 F3600 E6
G1 F2700 X15.346 Y6.888 E0.59879
G1 X-17.86 Y6.888 E2.31932
G1 X-17.86 Y-17.047 E1.67177
G1 X-10.435 Y-17.047 E0.51861
G1 X-10.435 Y-14.507 E0.17741
G1 X7.921 Y-14.507 E1.2821
G1 X7.921 Y-17.047 E0.17741
G1 X15.346 Y-17.047 E0.51861
G1 X15.346 Y-9.11 E0.55437
G1 X17.886 Y-9.11 E0.17741
G1 X17.886 Y-1.685 E0.51861
G1 X15.346 Y-1.685 E0.17741
G0 F15000 X14.646 Y-2.385
G1 F2700 X14.646 Y6.188 E0.59879
G1 X-17.16 Y6.188 E2.22153
G1 X-17.16 Y-16.347 E1.57399
G1 X-11.135 Y-16.347 E0.42082
G1 X-11.135 Y-13.807 E0.17741
G1 X8.621 Y-13.807 E1.37988
G1 X8.621 Y-16.347 E0.17741
G1 X14.646 Y-16.347 E0.42082
G1 X14.646 Y-8.41 E0.55437
G1 X17.186 Y-8.41 E0.17741
G1 X17.186 Y-2.385 E0.42082
G1 X14.646 Y-2.385 E0.17741
G1 F3600 E-6
G1 F3600 Z1.48
G0 F15000 X16.046 Y-.985 Z1.48
;TYPE:WALL-OUTER
G1 F3600 Z0.48
G1 F3600 E6
G1 F2700 X16.046 Y7.588 E0.59879
G1 X-18.56 Y7.588 E2.4171
G1 X-18.56 Y-17.747 E1.76956
G1 X-9.735 Y-17.747 E0.61639
G1 X-9.735 Y-15.207 E0.17741
G1 X7.221 Y-15.207 E1.18431
G1 X7.221 Y-17.747 E0.17741
G1 X16.046 Y-17.747 E0.61639
G1 X16.046 Y-9.81 E0.55437
G1 X18.586 Y-9.81 E0.17741
G1 X18.586 Y-.985 E0.61639
G1 X16.046 Y-.985 E0.17741
G0 F15000 X16.046 Y-.635
G0 X15.276 Y-.635
G1 F3600 E-6
G1 F3600 Z1.48
G0 F15000 X-9.042 Y17.047 Z1.48
;TYPE:WALL-INNER
G1 F3600 Z0.48
G1 F3600 E6
G1 F2700 X-9.391 Y17.047 E0.02438
G1 X-17.886 Y17.047 E0.59334
G1 X-17.886 Y15.973 E0.07501
G1 X-9.043 Y15.973 E0.61765
G1 X-9.042 Y16.698 E0.05064
G1 X-9.042 Y17.047 E0.01577
G0 F15000 X-8.692 Y17.747
;TYPE:WALL-OUTER
G1 F2700 X-18.586 Y17.747 E0.69106
G1 X-18.586 Y15.273 E0.1728
G1 X-8.343 Y15.273 E0.71544
G1 X-8.342 Y17.397 E0.14835
G1 X-8.342 Y17.747 E0.02445
G1 X-8.692 Y17.747 E0.01582
G0 F15000 X-9.042 Y17.747
G0 X-9.113 Y16.976
G1 F3600 E-6
G1 F3600 Z1.48
G0 F15000 X-15.07 Y4.098 Z1.48
;TYPE:SKIN
G1 F3600 Z0.48
G1 F3600 E6
G1 F2700 X-15.07 Y-14.257 E1.28203
G1 X-13.225 Y-14.257 E0.12887
G1 X-13.225 Y-11.717 E0.17741
G1 X10.711 Y-11.717 E1.67184
G1 X10.711 Y-14.257 E0.17741
G1 X12.556 Y-14.257 E0.12887
G1 X12.556 Y-6.32 E0.55437
G1 X15.096 Y-6.32 E0.17741
G1 X15.096 Y-4.475 E0.12887
G1 X12.556 Y-4.475 E0.17741
G1 X12.556 Y4.098 E0.59879
G1 X-15.07 Y4.098 E1.92957
G1 F3600 E-6
G1 F3600 Z1.48
G0 F15000 X-14.859 Y-13.849 Z1.48
G1 F3600 Z0.48
G1 F3600 E6
G1 F2700 X-14.661 Y-14.047 E0.01956
G0 F15000 X-13.671 Y-14.046
G1 F2700 X-14.859 Y-12.859 E0.1173
G0 F15000 X-14.859 Y-11.869
G1 F2700 X-13.435 Y-13.293 E0.14066
G0 F15000 X-13.435 Y-12.303
G1 F2700 X-14.859 Y-10.879 E0.14066
G0 F15000 X-14.859 Y-9.889
G1 F2700 X-13.241 Y-11.506 E0.15977
G0 F15000 X-12.252 Y-11.506
G1 F2700 X-14.859 Y-8.899 E0.25751
