;FLAVOR:RepRap
;TIME:7525
;Filament used: 13.9946m
;Layer height: 0.24
;MINX:-88.197
;MINY:-52.564
;MINZ:0.24
;MAXX:87.864
;MAXY:54.255
;MAXZ:14.92
;Generated with Cura_SteamEngine 4.6.2
T0
M190 S65
M104 S205
M109 S205
M82 ;absolute extrusion mode
M203 Z14000
G28 ;Home
G1 X0 Y-130 Z0.3 F8000 ;Move the platform down 15mm
G1 Z5
G1 F200 E3
G92 E0
M82 ;absolute extrusion mode
G91
G1 Z1 F10000
G90
G1 X0 Y-130 F14000
T0 P0
G92 E0
G1 E145 F5000
G92 E0
G1 E15 F1000
G92 E0
M18 E1
M83 ;relative extrusion mode
M83 ;relative extrusion mode
G1 F3600 E-6
;LAYER_COUNT:59
;LAYER:0
M107
G1 F3600 Z1.24
G0 F15000 X-35.901 Y-51.606 Z1.24
;TYPE:SKIRT
G1 F3600 Z0.24
G1 F3600 E6
G1 F2700 X-33.153 Y-51.45 E0.19225
G1 X-30.413 Y-51.372 E0.19146
G1 X-27.704 Y-51.372 E0.18921
G1 X-24.961 Y-51.449 E0.19166
G1 X-22.213 Y-51.604 E0.19224
G1 X-20.726 Y-51.73 E0.10423
G1 X-19.322 Y-51.843 E0.09838
G1 X-18.821 Y-51.862 E0.03502
G1 X18.391 Y-51.864 E2.59912
G1 X19.088 Y-51.854 E0.04869
G1 X22.099 Y-51.606 E0.21102
G1 X24.847 Y-51.45 E0.19225
G1 X27.587 Y-51.372 E0.19146
G1 X30.296 Y-51.372 E0.18921
G1 X33.039 Y-51.449 E0.19166
G1 X35.787 Y-51.604 E0.19224
G1 X37.274 Y-51.73 E0.10423
G1 X38.678 Y-51.843 E0.09838
G1 X39.179 Y-51.862 E0.03502
G1 X76.391 Y-51.864 E2.59912
G1 X77.088 Y-51.854 E0.04869
G1 X77.603 Y-51.806 E0.03613
G1 X78.105 Y-51.68 E0.03615
G1 X78.581 Y-51.478 E0.03612
G1 X79.021 Y-51.206 E0.03613
G1 X79.413 Y-50.869 E0.03611
G1 X79.749 Y-50.475 E0.03617
G1 X80.02 Y-50.034 E0.03615
G1 X80.22 Y-49.557 E0.03613
G1 X80.355 Y-48.984 E0.04112
G1 X80.43 Y-48.465 E0.03663
G1 X80.862 Y-45.724 E0.19381
G1 X81.361 Y-43.049 E0.19006
G1 X81.946 Y-40.341 E0.19351
G1 X82.59 Y-37.72 E0.18851
G1 X83.317 Y-35.085 E0.19092
G1 X84.123 Y-32.455 E0.19213
G1 X84.999 Y-29.861 E0.19123
G1 X85.944 Y-27.306 E0.19027
G1 X86.921 Y-24.872 E0.18319
G1 X87.076 Y-24.378 E0.03616
G1 X87.153 Y-23.867 E0.03609
G1 X87.151 Y-23.349 E0.03618
G1 X87.058 Y-22.796 E0.03917
G1 X86.357 Y-20.01 E0.20066
G1 X85.83 Y-17.794 E0.1591
G1 X85.438 Y-16.074 E0.12322
G1 X84.879 Y-13.325 E0.19594
G1 X84.415 Y-10.64 E0.19032
G1 X84.03 Y-7.976 E0.188
G1 X83.709 Y-5.213 E0.19428
G1 X83.474 Y-2.517 E0.18902
G1 X83.312 Y0.224 E0.19178
G1 X83.229 Y2.934 E0.18937
G1 X83.223 Y5.677 E0.19159
G1 X83.295 Y8.426 E0.19207
G1 X83.441 Y11.125 E0.18879
G1 X83.672 Y13.9 E0.19449
G1 X83.968 Y16.563 E0.18715
G1 X84.353 Y19.311 E0.19381
G1 X84.802 Y21.973 E0.18856
G1 X85.342 Y24.69 E0.19348
G1 X85.943 Y27.328 E0.18898
G1 X86.725 Y30.337 E0.21715
G1 X87.043 Y31.486 E0.08327
G1 X87.142 Y31.994 E0.03615
G1 X87.161 Y32.511 E0.03613
G1 X87.069 Y33.17 E0.04648
G1 X86.835 Y34.134 E0.06929
G1 X86.251 Y36.438 E0.16601
G1 X86.155 Y36.846 E0.02928
G1 X85.903 Y37.552 E0.05236
G1 X85.145 Y39.1 E0.12039
G1 X83.99 Y41.564 E0.19007
G1 X82.907 Y44.053 E0.18959
G1 X81.872 Y46.623 E0.19351
G1 X80.478 Y50.493 E0.28731
G1 X80.218 Y51.264 E0.05683
G1 X80.015 Y51.74 E0.03614
G1 X79.741 Y52.179 E0.03614
G1 X79.404 Y52.571 E0.03611
G1 X79.01 Y52.906 E0.03612
G1 X78.569 Y53.176 E0.03612
G1 X78.091 Y53.376 E0.03619
G1 X77.589 Y53.499 E0.0361
G1 X76.834 Y53.553 E0.05287
G1 X39.609 Y53.555 E2.60003
G1 X38.912 Y53.545 E0.04869
G1 X35.901 Y53.297 E0.21102
G1 X33.153 Y53.141 E0.19225
G1 X30.413 Y53.063 E0.19146
G1 X27.704 Y53.063 E0.18921
G1 X24.961 Y53.14 E0.19166
G1 X22.213 Y53.295 E0.19224
G1 X20.726 Y53.421 E0.10423
G1 X19.322 Y53.534 E0.09838
G1 X18.821 Y53.553 E0.03502
G1 X-18.391 Y53.555 E2.59912
G1 X-19.088 Y53.545 E0.04869
G1 X-22.099 Y53.297 E0.21102
G1 X-24.847 Y53.141 E0.19225
G1 X-27.587 Y53.063 E0.19146
G1 X-30.296 Y53.063 E0.18921
G1 X-33.039 Y53.14 E0.19166
G1 X-35.787 Y53.295 E0.19224
G1 X-37.274 Y53.421 E0.10423
G1 X-38.678 Y53.534 E0.09838
G1 X-39.179 Y53.553 E0.03502
G1 X-76.391 Y53.555 E2.59912
G1 X-77.089 Y53.545 E0.04876
G1 X-77.604 Y53.497 E0.03613
G1 X-78.106 Y53.371 E0.03615
G1 X-78.582 Y53.169 E0.03612
G1 X-79.022 Y52.897 E0.03613
G1 X-79.414 Y52.56 E0.03611
G1 X-79.75 Y52.166 E0.03617
G1 X-80.021 Y51.725 E0.03615
G1 X-80.505 Y50.454 E0.09499
G1 X-81.463 Y47.866 E0.19275
G1 X-82.471 Y45.363 E0.18847
G1 X-83.578 Y42.827 E0.19327
G1 X-84.721 Y40.393 E0.18782
G1 X-85.915 Y38.024 E0.18529
G1 X-86.175 Y37.44 E0.04465
G1 X-86.493 Y35.998 E0.10314
G1 X-86.855 Y34.194 E0.12851
G1 X-87.094 Y33.074 E0.07999
G1 X-87.163 Y32.562 E0.03608
G1 X-87.152 Y32.044 E0.03619
G1 X-87.045 Y31.475 E0.04044
G1 X-86.9 Y30.955 E0.03771
G1 X-86.201 Y28.294 E0.19217
G1 X-85.578 Y25.625 E0.19143
G1 X-85.049 Y23.006 E0.18662
G1 X-84.571 Y20.256 E0.19496
G1 X-84.185 Y17.595 E0.18781
G1 X-83.865 Y14.839 E0.19379
G1 X-83.629 Y12.14 E0.18923
G1 X-83.467 Y9.396 E0.19199
G1 X-83.385 Y6.691 E0.18902
G1 X-83.378 Y3.943 E0.19194
G1 X-83.449 Y1.2 E0.19165
G1 X-83.595 Y-1.504 E0.18914
G1 X-83.824 Y-4.273 E0.19406
G1 X-84.121 Y-6.939 E0.18736
G1 X-84.506 Y-9.687 E0.19381
G1 X-84.957 Y-12.356 E0.18906
G1 X-85.493 Y-15.059 E0.19247
G1 X-86.081 Y-17.644 E0.18516
G1 X-86.791 Y-20.407 E0.19926
G1 X-87.369 Y-22.44 E0.14762
G1 X-87.472 Y-22.947 E0.03614
G1 X-87.495 Y-23.464 E0.03615
G1 X-87.439 Y-23.978 E0.03611
G1 X-87.239 Y-24.645 E0.04864
G1 X-86.815 Y-25.662 E0.07696
G1 X-85.778 Y-28.249 E0.19467
G1 X-84.837 Y-30.81 E0.19057
G1 X-83.969 Y-33.393 E0.19033
G1 X-83.17 Y-36.016 E0.19152
G1 X-82.442 Y-38.671 E0.19229
G1 X-81.795 Y-41.322 E0.1906
G1 X-81.229 Y-43.967 E0.18893
G1 X-80.518 Y-47.955 E0.28294
G1 X-80.351 Y-49.02 E0.0753
G1 X-80.232 Y-49.523 E0.0361
G1 X-80.036 Y-50.002 E0.03615
G1 X-79.769 Y-50.445 E0.03613
G1 X-79.437 Y-50.842 E0.03615
G1 X-79.048 Y-51.183 E0.03613
G1 X-78.611 Y-51.46 E0.03614
G1 X-78.137 Y-51.666 E0.0361
G1 X-77.636 Y-51.797 E0.03617
G1 X-76.866 Y-51.861 E0.05397
G1 X-39.609 Y-51.864 E2.60226
G1 X-38.912 Y-51.854 E0.04869
G1 X-35.901 Y-51.606 E0.21102
G0 F15000 X-35.837 Y-52.303
G1 F2700 X-33.13 Y-52.148 E0.18938
G1 X-30.429 Y-52.072 E0.18873
G1 X-27.687 Y-52.072 E0.19152
G1 X-25.02 Y-52.146 E0.18635
G1 X-22.277 Y-52.302 E0.1919
G1 X-20.785 Y-52.428 E0.10458
G1 X-19.378 Y-52.541 E0.09859
G1 X-18.842 Y-52.562 E0.03747
G1 X18.401 Y-52.564 E2.60129
G1 X19.098 Y-52.554 E0.04869
G1 X22.163 Y-52.303 E0.2148
G1 X24.87 Y-52.148 E0.18938
G1 X27.571 Y-52.072 E0.18873
G1 X30.313 Y-52.072 E0.19152
G1 X32.98 Y-52.146 E0.18635
G1 X35.723 Y-52.302 E0.1919
G1 X37.215 Y-52.428 E0.10458
G1 X38.622 Y-52.541 E0.09859
G1 X39.158 Y-52.562 E0.03747
G1 X76.401 Y-52.564 E2.60129
G1 X77.098 Y-52.554 E0.04869
G1 X77.665 Y-52.505 E0.03975
G1 X78.219 Y-52.378 E0.0397
G1 X78.751 Y-52.175 E0.03977
G1 X79.248 Y-51.899 E0.03971
G1 X79.702 Y-51.556 E0.03974
G1 X80.103 Y-51.153 E0.03971
G1 X80.444 Y-50.698 E0.03971
G1 X80.718 Y-50.199 E0.03976
G1 X80.919 Y-49.667 E0.03972
G1 X81.048 Y-49.084 E0.04171
G1 X81.122 Y-48.574 E0.03599
G1 X81.556 Y-45.818 E0.19487
G1 X82.047 Y-43.188 E0.18687
G1 X82.625 Y-40.511 E0.19129
G1 X83.268 Y-37.895 E0.18816
G1 X83.993 Y-35.265 E0.19055
G1 X84.788 Y-32.673 E0.18937
G1 X85.652 Y-30.117 E0.18845
G1 X86.603 Y-27.543 E0.19166
G1 X87.571 Y-25.132 E0.18147
G1 X87.745 Y-24.591 E0.03969
G1 X87.842 Y-24.03 E0.03977
G1 X87.859 Y-23.462 E0.03969
G1 X87.736 Y-22.623 E0.05923
G1 X87.036 Y-19.839 E0.2005
G1 X86.511 Y-17.632 E0.15845
G1 X86.116 Y-15.896 E0.12435
G1 X85.568 Y-13.197 E0.19236
G1 X85.107 Y-10.53 E0.18904
G1 X84.722 Y-7.869 E0.1878
G1 X84.409 Y-5.175 E0.18943
G1 X84.171 Y-2.45 E0.19106
G1 X84.012 Y0.251 E0.18898
G1 X83.929 Y2.958 E0.18916
G1 X83.923 Y5.661 E0.18879
G1 X83.995 Y8.405 E0.19172
G1 X84.141 Y11.098 E0.18837
G1 X84.365 Y13.802 E0.18951
G1 X84.665 Y16.493 E0.18912
G1 X85.045 Y19.207 E0.19141
G1 X85.493 Y21.858 E0.18779
G1 X86.019 Y24.509 E0.18877
G1 X86.623 Y27.159 E0.18984
G1 X87.416 Y30.212 E0.22032
G1 X87.717 Y31.3 E0.07885
G1 X87.83 Y31.857 E0.0397
G1 X87.864 Y32.425 E0.03974
G1 X87.817 Y32.992 E0.03974
G1 X87.516 Y34.299 E0.09368
G1 X86.916 Y36.666 E0.17055
G1 X86.667 Y37.55 E0.06415
G1 X85.803 Y39.346 E0.1392
G1 X84.632 Y41.843 E0.19263
G1 X83.536 Y44.363 E0.19194
G1 X82.525 Y46.876 E0.1892
G1 X81.145 Y50.704 E0.28422
G1 X80.881 Y51.488 E0.05778
G1 X80.662 Y52.013 E0.03973
G1 X80.371 Y52.502 E0.03975
G1 X80.015 Y52.945 E0.03969
G1 X79.6 Y53.335 E0.03978
G1 X79.135 Y53.662 E0.03971
G1 X78.629 Y53.921 E0.0397
G1 X78.091 Y54.106 E0.03974
G1 X77.532 Y54.214 E0.03977
G1 X76.858 Y54.253 E0.04716
G1 X39.599 Y54.255 E2.6024
G1 X38.902 Y54.245 E0.04869
G1 X35.837 Y53.994 E0.2148
G1 X33.13 Y53.839 E0.18938
G1 X30.429 Y53.763 E0.18873
G1 X27.687 Y53.763 E0.19152
G1 X25.02 Y53.837 E0.18635
G1 X22.277 Y53.993 E0.1919
G1 X20.785 Y54.119 E0.10458
G1 X19.378 Y54.232 E0.09859
G1 X18.842 Y54.253 E0.03747
G1 X-18.401 Y54.255 E2.60129
G1 X-19.098 Y54.245 E0.04869
G1 X-22.163 Y53.994 E0.2148
G1 X-24.87 Y53.839 E0.18938
G1 X-27.571 Y53.763 E0.18873
G1 X-30.313 Y53.763 E0.19152
G1 X-32.98 Y53.837 E0.18635
G1 X-35.723 Y53.993 E0.1919
G1 X-37.215 Y54.119 E0.10458
G1 X-38.622 Y54.232 E0.09859
G1 X-39.158 Y54.253 E0.03747
G1 X-76.401 Y54.255 E2.60129
G1 X-77.099 Y54.245 E0.04876
G1 X-77.666 Y54.197 E0.03974
G1 X-78.22 Y54.069 E0.03971
G1 X-78.752 Y53.866 E0.03977
G1 X-79.249 Y53.59 E0.03971
G1 X-79.703 Y53.247 E0.03974
G1 X-80.104 Y52.844 E0.03971
G1 X-80.445 Y52.389 E0.03971
G1 X-80.719 Y51.89 E0.03976
G1 X-82.105 Y48.147 E0.27878
G1 X-83.13 Y45.603 E0.19157
G1 X-84.2 Y43.15 E0.18692
G1 X-85.361 Y40.679 E0.19069
G1 X-86.54 Y38.339 E0.18301
G1 X-86.82 Y37.718 E0.04758
G1 X-86.974 Y37.159 E0.0405
G1 X-87.541 Y34.335 E0.20118
G1 X-87.779 Y33.221 E0.07956
G1 X-87.858 Y32.657 E0.03978
G1 X-87.858 Y32.088 E0.03974
G1 X-87.719 Y31.287 E0.05678
G1 X-86.883 Y28.135 E0.22777
G1 X-86.268 Y25.496 E0.18926
G1 X-85.726 Y22.821 E0.19064
G1 X-85.268 Y20.179 E0.18729
G1 X-84.876 Y17.483 E0.19029
G1 X-84.565 Y14.798 E0.18879
G1 X-84.327 Y12.076 E0.19085
G1 X-84.167 Y9.368 E0.18947
G1 X-84.085 Y6.669 E0.1886
G1 X-84.078 Y3.961 E0.18914
G1 X-84.149 Y1.22 E0.19151
G1 X-84.295 Y-1.478 E0.18872
G1 X-84.518 Y-4.176 E0.18909
G1 X-84.818 Y-6.869 E0.18926
G1 X-85.198 Y-9.583 E0.19141
G1 X-85.641 Y-12.207 E0.18587
G1 X-86.176 Y-14.905 E0.19211
G1 X-86.771 Y-17.518 E0.18718
G1 X-87.458 Y-20.191 E0.19277
G1 X-88.043 Y-22.249 E0.14944
G1 X-88.159 Y-22.806 E0.03974
G1 X-88.197 Y-23.373 E0.03969
G1 X-88.155 Y-23.941 E0.03978
G1 X-88.033 Y-24.496 E0.03969
G1 X-87.463 Y-25.928 E0.10765
G1 X-86.429 Y-28.509 E0.1942
G1 X-85.493 Y-31.052 E0.18927
G1 X-84.634 Y-33.609 E0.18841
G1 X-83.847 Y-36.194 E0.18873
G1 X-83.12 Y-38.844 E0.19193
G1 X-82.48 Y-41.464 E0.18838
G1 X-81.914 Y-44.116 E0.1894
G1 X-81.216 Y-48.025 E0.27735
G1 X-81.043 Y-49.129 E0.07805
G1 X-80.915 Y-49.683 E0.03971
G1 X-80.711 Y-50.214 E0.03973
G1 X-80.435 Y-50.711 E0.03971
G1 X-80.092 Y-51.165 E0.03974
G1 X-79.688 Y-51.566 E0.03976
G1 X-79.233 Y-51.906 E0.03967
G1 X-78.734 Y-52.18 E0.03976
G1 X-78.202 Y-52.38 E0.0397
G1 X-77.646 Y-52.505 E0.0398
G1 X-76.896 Y-52.56 E0.05253
G1 X-39.599 Y-52.564 E2.60506
G1 X-38.902 Y-52.554 E0.04869
G1 X-35.837 Y-52.303 E0.2148
G1 F3600 E-6
G1 F3600 Z1.24
G0 F15000 X-34.355 Y-24.496 Z1.24
;TYPE:SUPPORT
G1 F3600 Z0.24
G1 F3600 E6
G1 F2700 X-33.98 Y-24.347 E0.02818
G1 X-33.323 Y-24.136 E0.0482
G1 X-32.805 Y-23.847 E0.04143
G1 X-32.711 Y-23.748 E0.00954
G1 X-32.586 Y-23.584 E0.0144
G1 X-32.639 Y-23.478 E0.00828
G1 X-33.237 Y-23.098 E0.04949
G1 X-34.048 Y-21.568 E0.12095
G1 X-34.008 Y-20.681 E0.06202
G1 X-33.507 Y-19.906 E0.06446
G1 X-33.83 Y-19.314 E0.0471
G1 X-37.965 Y-19.312 E0.28881
G1 X-37.989 Y-24.496 E0.36209
G1 X-34.355 Y-24.496 E0.25382
G0 F15000 X-33.588 Y-24
G1 F2700 X-37.777 Y-24 E0.29259
G1 F3600 E-6
G1 F3600 Z1.24
G0 F15000 X-36 Y-24.286 Z1.24
G1 F3600 Z0.24
G1 F3600 E6
G1 F2700 X-36 Y-19.522 E0.33275
G1 F3600 E-6
G1 F3600 Z1.24
G0 F15000 X-37.763 Y-21 Z1.24
G1 F3600 Z0.24
G1 F3600 E6
G1 F2700 X-34.232 Y-21 E0.24663
G1 F3600 E-6
G1 F3600 Z1.24
G0 F15000 X-33 Y-23.497 Z1.24
G1 F3600 Z0.24
G1 F3600 E6
G1 F2700 X-33 Y-23.714 E0.01516
G1 F3600 E-6
G1 F3600 Z1.24
G0 F15000 X-25.748 Y-23.339 Z1.24
G1 F3600 Z0.24
G1 F3600 E6
G1 F2700 X-25.567 Y-23.616 E0.02311
G1 X-24.739 Y-24.166 E0.06943
G1 X-24.075 Y-24.305 E0.04738
G1 X-23.655 Y-24.496 E0.03223
G1 X-20.1 Y-24.496 E0.2483
G1 X-20.1 Y-20.569 E0.27429
G1 X-20.112 Y-20.562 E0.00097
G1 X-20.774 Y-19.312 E0.0988
G1 X-24.186 Y-19.314 E0.23832
G1 X-24.469 Y-19.886 E0.04457
G1 X-24.196 Y-20.352 E0.03772
G1 X-24.196 Y-22.64 E0.15981
G1 X-24.895 Y-23.339 E0.06905
G1 X-25.748 Y-23.339 E0.05958
G1 F3600 E-6
G1 F3600 Z1.24
G0 F15000 X-24.506 Y-24 Z1.24
G1 F3600 Z0.24
G1 F3600 E6
G1 F2700 X-20.31 Y-24 E0.29308
G0 F15000 X-21 Y-24.286
G1 F2700 X-21 Y-19.523 E0.33268
G1 F3600 E-6
G1 F3600 Z1.24
G0 F15000 X-20.31 Y-21 Z1.24
G1 F3600 Z0.24
G1 F3600 E6
G1 F2700 X-23.986 Y-21 E0.25675
G0 F15000 X-24 Y-20.272
G1 F2700 X-24 Y-19.524 E0.05225
G1 F3600 E-6
G1 F3600 Z1.24
G0 F15000 X-24 Y-22.741 Z1.24
G1 F3600 Z0.24
G1 F3600 E6
G1 F2700 X-24 Y-24.108 E0.09548
G1 F3600 E-6
G1 F3600 Z1.24
G0 F15000 X20.1 Y-24.496 Z1.24
G1 F3600 Z0.24
G1 F3600 E6
G1 F2700 X23.642 Y-24.496 E0.2474
G1 X23.974 Y-24.366 E0.0249
G1 X24.68 Y-24.135 E0.05188
G1 X25.18 Y-23.858 E0.03992
G1 X25.339 Y-23.685 E0.01641
G1 X25.42 Y-23.578 E0.00937
G1 X25.365 Y-23.467 E0.00865
G1 X24.789 Y-23.095 E0.04789
G1 X23.951 Y-21.575 E0.12123
G1 X23.987 Y-20.681 E0.06249
G1 X24.499 Y-19.91 E0.06464
G1 X24.178 Y-19.314 E0.04728
G1 X20.1 Y-19.312 E0.28483
G1 X20.1 Y-24.496 E0.36208
G0 F15000 X20.31 Y-24
G1 F2700 X24.417 Y-24 E0.28686
G0 F15000 X24 Y-24.136
G1 F2700 X24 Y-22.097 E0.14242
G0 F15000 X23.764 Y-21
G1 F2700 X20.31 Y-21 E0.24125
G1 F3600 E-6
G1 F3600 Z1.24
G0 F15000 X21 Y-19.522 Z1.24
G1 F3600 Z0.24
G1 F3600 E6
G1 F2700 X21 Y-24.286 E0.33275
G1 F3600 E-6
G1 F3600 Z1.24
G0 F15000 X24 Y-20.281 Z1.24
G1 F3600 Z0.24
G1 F3600 E6
G1 F2700 X24 Y-19.523 E0.05294
G1 F3600 E-6
G1 F3600 Z1.24
G0 F15000 X32.25 Y-23.34 Z1.24
G1 F3600 Z0.24
G1 F3600 E6
G1 F2700 X32.427 Y-23.61 E0.02255
G1 X33.278 Y-24.168 E0.07108
G1 X33.933 Y-24.311 E0.04683
G1 X34.342 Y-24.496 E0.03135
G1 X37.9 Y-24.496 E0.24851
G1 X37.9 Y-20.539 E0.27638
G1 X37.212 Y-19.312 E0.09825
G1 X36.236 Y-19.314 E0.06817
G1 X33.814 Y-19.314 E0.16917
G1 X33.53 Y-19.889 E0.04479
G1 X34.385 Y-21.328 E0.11691
G1 X34.103 Y-22.291 E0.07009
G1 X32.34 Y-23.173 E0.13769
G1 X32.25 Y-23.34 E0.01325
G0 F15000 X33 Y-23.078
G1 F2700 X33 Y-23.735 E0.04589
G0 F15000 X33.493 Y-23.999
G1 F2700 X37.69 Y-23.999 E0.29314
G1 F3600 E-6
G1 F3600 Z1.24
G0 F15000 X36 Y-24.286 Z1.24
G1 F3600 Z0.24
G1 F3600 E6
G1 F2700 X36 Y-19.524 E0.33261
G1 F3600 E-6
G1 F3600 Z1.24
G0 F15000 X34.435 Y-20.999 Z1.24
G1 F3600 Z0.24
G1 F3600 E6
G1 F2700 X37.69 Y-20.999 E0.22735
G1 F3600 E-6
G1 F3600 Z1.24
G0 F15000 X78.1 Y-19.312 Z1.24
G1 F3600 Z0.24
G1 F3600 E6
G1 F2700 X78.1 Y-24.496 E0.36208
G1 X81.655 Y-24.496 E0.2483
G1 X82.005 Y-24.359 E0.02625
G1 X82.659 Y-24.14 E0.04817
G1 X83.187 Y-23.852 E0.04201
G1 X83.332 Y-23.69 E0.01519
G1 X83.414 Y-23.582 E0.00947
G1 X83.36 Y-23.471 E0.00862
G1 X82.785 Y-23.091 E0.04814
G1 X81.957 Y-21.594 E0.11949
G1 X81.988 Y-20.703 E0.06227
G1 X82.498 Y-19.913 E0.06568
G1 X82.172 Y-19.314 E0.04763
G1 X78.1 Y-19.312 E0.28441
G1 F3600 E-6
G1 F3600 Z1.24
G0 F15000 X78.31 Y-20.999 Z1.24
G1 F3600 Z0.24
G1 F3600 E6
G1 F2700 X81.769 Y-20.999 E0.2416
G1 F3600 E-6
G1 F3600 Z1.24
G0 F15000 X81 Y-19.523 Z1.24
G1 F3600 Z0.24
G1 F3600 E6
G1 F2700 X81 Y-24.286 E0.33268
G1 F3600 E-6
G1 F3600 Z1.24
G0 F15000 X82.417 Y-23.999 Z1.24
G1 F3600 Z0.24
G1 F3600 E6
G1 F2700 X78.31 Y-23.999 E0.28686
G1 F3600 E-6
G1 F3600 Z1.24
G0 F15000 X78.1 Y31.504 Z1.24
G1 F3600 Z0.24
G1 F3600 E6
G1 F2700 X81.65 Y31.504 E0.24795
G1 X82.008 Y31.641 E0.02677
G1 X82.678 Y31.866 E0.04937
G1 X83.196 Y32.153 E0.04136
G1 X83.287 Y32.25 E0.00929
G1 X83.414 Y32.418 E0.01471
G1 X83.357 Y32.532 E0.0089
G1 X82.782 Y32.91 E0.04806
G1 X81.953 Y34.419 E0.12026
G1 X81.986 Y35.311 E0.06235
G1 X82.498 Y36.097 E0.06552
G1 X82.175 Y36.686 E0.04692
G1 X78.1 Y36.688 E0.28462
G1 X78.1 Y31.504 E0.36208
G1 F3600 E-6
G1 F3600 Z1.24
G0 F15000 X78.31 Y33 Z1.24
G1 F3600 Z0.24
G1 F3600 E6
G1 F2700 X82.492 Y33 E0.2921
G1 F3600 E-6
G1 F3600 Z1.24
G0 F15000 X81 Y31.714 Z1.24
G1 F3600 Z0.24
