;FLAVOR:RepRap
;TIME:394
;Filament used: 0.274923m, 0m
;Layer height: 0.24
;MINX:-17
;MINY:-11.5
;MINZ:0.24
;MAXX:17
;MAXY:11.491
;MAXZ:7
;Generated with Cura_SteamEngine 4.6.2
T0
M190 S65
M104 S205
M109 S205
M82 ;absolute extrusion mode
;=== SeeMeCNC PRINTER SETTINGS =========
;=== OPTIMIZED FOR CURA 4.6.2  =========
M203 Z10000  ;===PRINTER BEGIN G-CODE===
G28
G1 X0 Y-130 Z0.3 F8000
G1 F200 E3
G92 E0       ;==========================
M82 ;absolute extrusion mode
G91           ;=======EXTRUDER 1 BEGIN GCODE=======
G1 Z1 F10000
G90
G1 X0 Y-130 F10000
T0 P0         ;=== SELECT TOOL DO NOT RUN MACROS ==
G92 E0
G1 E145 F4000
G92 E0
G1 E15 F500
G92 E0        ;====================================
M83 ;relative extrusion mode
M83 ;relative extrusion mode
G1 F3600 E-6
;LAYER_COUNT:25
;LAYER:0
M107
G1 F3600 Z1.24
G0 F15000 X-8.998 Y-10.057 Z1.24
;TYPE:SKIRT
G1 F3600 Z0.24
G1 F3600 E6
G1 F2700 X-6.806 Y-9.871 E0.15365
G1 X-4.064 Y-9.716 E0.19182
G1 X-1.321 Y-9.639 E0.19166
G1 X1.389 Y-9.639 E0.18928
G1 X4.136 Y-9.718 E0.19195
G1 X6.893 Y-9.874 E0.19287
G1 X9.334 Y-10.078 E0.17109
G1 X10.294 Y-10.1 E0.06707
G1 X11.591 Y-10.1 E0.09059
G1 X12.289 Y-10.09 E0.04876
G1 X12.804 Y-10.042 E0.03613
G1 X13.306 Y-9.916 E0.03615
G1 X13.782 Y-9.714 E0.03612
G1 X14.222 Y-9.442 E0.03613
G1 X14.614 Y-9.105 E0.03611
G1 X14.95 Y-8.711 E0.03617
G1 X15.221 Y-8.27 E0.03615
G1 X15.421 Y-7.793 E0.03613
G1 X15.545 Y-7.291 E0.03612
G1 X15.599 Y-6.514 E0.0544
G1 X15.6 Y-.44 E0.42425
G1 X15.59 Y0.287 E0.05078
G1 X15.543 Y0.802 E0.03612
G1 X15.417 Y1.304 E0.03615
G1 X15.215 Y1.78 E0.03612
G1 X14.943 Y2.22 E0.03613
G1 X14.606 Y2.613 E0.03616
G1 X14.213 Y2.949 E0.03611
G1 X12.767 Y3.788 E0.11677
G1 X10.448 Y5.12 E0.18679
G1 X8.165 Y6.519 E0.18702
G1 X4.714 Y8.783 E0.28828
G1 X4.114 Y9.118 E0.048
G1 X3.366 Y9.482 E0.0581
G1 X2.699 Y9.707 E0.04917
G1 X1.844 Y9.913 E0.06143
G1 X0.985 Y10.054 E0.0608
G1 X0.249 Y10.092 E0.05148
G1 X-.332 Y10.083 E0.04059
G1 X-1.245 Y10.012 E0.06396
G1 X-2.242 Y9.838 E0.07069
G1 X-2.767 Y9.689 E0.03812
G1 X-3.391 Y9.455 E0.04655
G1 X-3.934 Y9.224 E0.04122
G1 X-4.42 Y8.965 E0.03846
G1 X-4.874 Y8.671 E0.03778
G1 X-7.159 Y7.143 E0.19199
G1 X-9.423 Y5.72 E0.18677
G1 X-11.821 Y4.308 E0.19437
G1 X-13.81 Y3.204 E0.15889
G1 X-14.38 Y2.82 E0.048
G1 X-14.751 Y2.46 E0.03611
G1 X-15.063 Y2.047 E0.03615
G1 X-15.307 Y1.591 E0.03612
G1 X-15.478 Y1.103 E0.03612
G1 X-15.572 Y0.594 E0.03615
G1 X-15.599 Y0.014 E0.04055
G1 X-15.6 Y-6.121 E0.42851
G1 X-15.591 Y-6.786 E0.04645
G1 X-15.544 Y-7.302 E0.03619
G1 X-15.418 Y-7.803 E0.03608
G1 X-15.217 Y-8.28 E0.03615
G1 X-14.944 Y-8.72 E0.03617
G1 X-14.607 Y-9.112 E0.03611
G1 X-14.214 Y-9.448 E0.03611
G1 X-13.774 Y-9.72 E0.03613
G1 X-13.297 Y-9.92 E0.03613
G1 X-12.795 Y-10.045 E0.03613
G1 X-12.014 Y-10.099 E0.05468
G1 X-10.23 Y-10.1 E0.12461
G1 X-9.532 Y-10.09 E0.04876
G1 X-8.998 Y-10.057 E0.03737
G0 F15000 X-8.997 Y-10.759
G1 F2700 X-6.78 Y-10.571 E0.1554
G1 X-4.003 Y-10.413 E0.19428
G1 X-1.338 Y-10.339 E0.18621
G1 X1.404 Y-10.339 E0.19152
G1 X4.075 Y-10.416 E0.18664
G1 X6.834 Y-10.572 E0.19301
G1 X9.276 Y-10.776 E0.17116
G1 X10.284 Y-10.8 E0.07043
G1 X11.601 Y-10.8 E0.09199
G1 X12.299 Y-10.79 E0.04876
G1 X12.866 Y-10.742 E0.03974
G1 X13.42 Y-10.614 E0.03971
G1 X13.952 Y-10.411 E0.03977
G1 X14.449 Y-10.135 E0.03971
G1 X14.903 Y-9.792 E0.03974
G1 X15.304 Y-9.389 E0.03971
G1 X15.645 Y-8.934 E0.03971
G1 X15.919 Y-8.435 E0.03976
G1 X16.12 Y-7.903 E0.03972
G1 X16.245 Y-7.348 E0.03974
G1 X16.298 Y-6.534 E0.05698
G1 X16.3 Y-.43 E0.42634
G1 X16.29 Y0.297 E0.05078
G1 X16.242 Y0.864 E0.03974
G1 X16.115 Y1.418 E0.0397
G1 X15.912 Y1.949 E0.03971
G1 X15.636 Y2.447 E0.03977
G1 X15.294 Y2.901 E0.0397
G1 X14.891 Y3.303 E0.03976
G1 X14.225 Y3.771 E0.05685
G1 X13.115 Y4.395 E0.08894
G1 X10.823 Y5.712 E0.18463
G1 X8.527 Y7.119 E0.18808
G1 X5.055 Y9.394 E0.28993
G1 X4.455 Y9.729 E0.048
G1 X3.615 Y10.136 E0.0652
G1 X2.863 Y10.387 E0.05537
G1 X2.008 Y10.593 E0.06143
G1 X1.492 Y10.695 E0.03674
G1 X0.741 Y10.773 E0.05274
G1 X0.109 Y10.794 E0.04417
G1 X-1.299 Y10.71 E0.09852
G1 X-2.378 Y10.525 E0.07646
G1 X-3.013 Y10.344 E0.04612
G1 X-3.637 Y10.11 E0.04655
G1 X-4.212 Y9.867 E0.0436
G1 X-4.799 Y9.553 E0.0465
G1 X-5.263 Y9.253 E0.03859
G1 X-7.524 Y7.741 E0.18998
G1 X-9.812 Y6.303 E0.18875
G1 X-12.172 Y4.913 E0.1913
G1 X-14.149 Y3.816 E0.15792
G1 X-14.783 Y3.394 E0.0532
G1 X-15.199 Y3.007 E0.03969
G1 X-15.558 Y2.565 E0.03977
G1 X-15.851 Y2.078 E0.0397
G1 X-16.072 Y1.554 E0.03972
G1 X-16.218 Y1.004 E0.03975
G1 X-16.289 Y0.355 E0.0456
G1 X-16.3 Y-6.131 E0.45302
G1 X-16.291 Y-6.796 E0.04645
G1 X-16.243 Y-7.363 E0.03974
G1 X-16.116 Y-7.917 E0.0397
G1 X-15.913 Y-8.449 E0.03977
G1 X-15.638 Y-8.946 E0.03967
G1 X-15.295 Y-9.401 E0.0398
G1 X-14.893 Y-9.802 E0.03966
G1 X-14.438 Y-10.144 E0.03976
G1 X-13.939 Y-10.418 E0.03976
G1 X-13.407 Y-10.619 E0.03972
G1 X-12.852 Y-10.745 E0.03975
G1 X-12.034 Y-10.798 E0.05725
G1 X-10.22 Y-10.8 E0.1267
G1 X-9.522 Y-10.79 E0.04876
G1 X-8.997 Y-10.759 E0.03673
G0 F15000 X-8.948 Y-11.457
G1 F2700 X-6.68 Y-11.265 E0.15898
G1 X-4.014 Y-11.114 E0.18651
G1 X-1.318 Y-11.039 E0.18838
G1 X1.384 Y-11.039 E0.18872
G1 X4.086 Y-11.116 E0.1888
G1 X6.772 Y-11.269 E0.18791
G1 X9.217 Y-11.473 E0.17137
G1 X10.275 Y-11.5 E0.07392
G1 X11.611 Y-11.5 E0.09331
G1 X12.309 Y-11.49 E0.04876
G1 X12.923 Y-11.441 E0.04302
G1 X13.526 Y-11.313 E0.04306
G1 X14.107 Y-11.108 E0.04303
G1 X14.657 Y-10.83 E0.04304
G1 X15.166 Y-10.483 E0.04303
G1 X15.626 Y-10.073 E0.04304
G1 X16.029 Y-9.607 E0.04303
G1 X16.368 Y-9.092 E0.04306
G1 X16.637 Y-8.538 E0.04302
G1 X16.833 Y-7.954 E0.04303
G1 X16.952 Y-7.35 E0.043
G1 X16.998 Y-6.554 E0.05569
G1 X17 Y-.421 E0.42837
G1 X16.99 Y0.306 E0.05078
G1 X16.941 Y0.921 E0.04309
G1 X16.814 Y1.523 E0.04297
G1 X16.609 Y2.105 E0.0431
G1 X16.331 Y2.654 E0.04298
G1 X15.984 Y3.164 E0.04308
G1 X15.575 Y3.624 E0.04299
G1 X15.109 Y4.027 E0.04303
G1 X14.568 Y4.382 E0.0452
G1 X13.426 Y5.024 E0.0915
G1 X11.183 Y6.313 E0.18069
G1 X8.889 Y7.718 E0.18789
G1 X5.397 Y10.005 E0.29156
G1 X4.797 Y10.34 E0.048
G1 X4.348 Y10.574 E0.03536
G1 X3.864 Y10.79 E0.03702
G1 X3.027 Y11.068 E0.0616
G1 X2.172 Y11.274 E0.06143
G1 X1.619 Y11.383 E0.03937
G1 X1.081 Y11.451 E0.03788
G1 X0.299 Y11.491 E0.05469
G1 X-.44 Y11.479 E0.05162
G1 X-1.353 Y11.408 E0.06396
G1 X-1.908 Y11.332 E0.03913
G1 X-2.514 Y11.212 E0.04315
G1 X-3.259 Y11 E0.0541
G1 X-3.883 Y10.766 E0.04655
G1 X-4.49 Y10.509 E0.04604
G1 X-5.179 Y10.141 E0.05456
G1 X-5.652 Y9.835 E0.03935
G1 X-7.906 Y8.328 E0.18938
G1 X-10.169 Y6.906 E0.18668
G1 X-12.525 Y5.518 E0.19099
G1 X-14.489 Y4.428 E0.15689
G1 X-15.182 Y3.971 E0.05798
G1 X-15.64 Y3.559 E0.04303
G1 X-16.041 Y3.091 E0.04305
G1 X-16.378 Y2.575 E0.04305
G1 X-16.645 Y2.02 E0.04302
G1 X-16.838 Y1.435 E0.04303
G1 X-16.954 Y0.83 E0.04303
G1 X-16.998 Y0.053 E0.05436
G1 X-17 Y-6.14 E0.43256
G1 X-16.991 Y-6.805 E0.04645
G1 X-16.942 Y-7.42 E0.04309
G1 X-16.815 Y-8.022 E0.04297
G1 X-16.611 Y-8.604 E0.04308
G1 X-16.333 Y-9.153 E0.04298
G1 X-15.986 Y-9.663 E0.04308
G1 X-15.576 Y-10.123 E0.04304
G1 X-15.111 Y-10.526 E0.04298
G1 X-14.596 Y-10.866 E0.0431
G1 X-14.043 Y-11.136 E0.04298
G1 X-13.459 Y-11.332 E0.04303
G1 X-12.854 Y-11.451 E0.04307
G1 X-12.053 Y-11.498 E0.05604
G1 X-10.21 Y-11.5 E0.12873
G1 X-9.512 Y-11.49 E0.04876
G1 X-8.948 Y-11.457 E0.03946
G1 F3600 E-6
G1 F3600 Z1.24
;MESH:T-Slot Wire Clip.stl
G0 F15000 X-10.528 Y-5.7 Z1.24
;TYPE:WALL-INNER
G1 F3600 Z0.24
G1 F3600 E6
G1 F2700 X-10.528 Y-3.705 E0.13934
G1 X-10.515 Y-3.705 E0.00091
G1 X-10.29 Y-3.704 E0.01572
G1 X-10.29 Y-.801 E0.20276
G1 X-10.851 Y-.8 E0.03918
G1 X-11.2 Y-.8 E0.02438
G1 X-11.2 Y-1.149 E0.01577
G1 X-11.2 Y-3.692 E0.17762
G1 X-11.2 Y-3.705 E0.0009
G1 X-11.2 Y-5.7 E0.13396
G1 X-10.528 Y-5.7 E0.04694
G1 F3600 E-6
G1 F3600 Z1.24
G0 F15000 X-5.461 Y-.699 Z1.24
G1 F3600 Z0.24
G1 F3600 E6
G1 F2700 X-3.587 Y-.698 E0.13089
G1 X-4.148 Y0.046 E0.06508
G1 X-4.311 Y0.357 E0.02452
G1 X-4.469 Y0.656 E0.02362
G1 X-4.58 Y0.656 E0.00775
G1 X-4.737 Y0.357 E0.0107
G1 X-4.901 Y0.047 E0.01945
G1 X-5.461 Y-.699 E0.06515
G1 F3600 E-6
G1 F3600 Z1.24
G0 F15000 X3.504 Y-.698 Z1.24
G1 F3600 Z0.24
G1 F3600 E6
G1 F2700 X5.414 Y-.699 E0.13341
G1 X4.855 Y0.04 E0.06472
G1 X4.695 Y0.344 E0.02399
G1 X4.53 Y0.656 E0.02465
G1 X4.42 Y0.656 E0.00768
G1 X4.261 Y0.353 E0.01077
G1 X4.088 Y0.025 E0.02097
G1 X3.504 Y-.698 E0.06492
G1 F3600 E-6
G1 F3600 Z1.24
G0 F15000 X10.28 Y-5.7 Z1.24
G1 F3600 Z0.24
G1 F3600 E6
G1 F2700 X11.2 Y-5.7 E0.06426
G1 X11.2 Y-1.149 E0.31787
G1 X11.2 Y-.8 E0.02438
G1 X10.851 Y-.8 E0.01577
G1 X10.28 Y-.801 E0.03988
G1 X10.28 Y-5.7 E0.34218
G1 F3600 E-6
G1 F3600 Z1.24
G0 F15000 X4.117 Y1.356 Z1.24
;TYPE:WALL-OUTER
G1 F3600 Z0.24
G1 F3600 E6
G1 F2700 X3.943 Y1.356 E0.01215
G1 X3.845 Y1.065 E0.02145
G1 X3.501 Y0.412 E0.05155
G1 X3.085 Y-.103 E0.04624
G1 X2.284 Y-.103 E0.05595
G1 X2.284 Y-1.398 E0.09045
G1 X9.58 Y-1.4 E0.5096
G1 X9.58 Y-5.1 E0.25843
G1 X9.185 Y-5.101 E0.02759
G1 X9.184 Y-5.101 E0.00007
G1 X8.287 Y-5.101 E0.06265
G1 X8.949 Y-5.707 E0.03347
G1 X9.704 Y-6.4 E0.07158
G1 X11.9 Y-6.4 E0.15338
G1 X11.9 Y-.45 E0.41559
G1 X11.9 Y-.1 E0.02445
G1 X11.55 Y-.1 E0.01582
G1 X5.841 Y-.103 E0.39875
G1 X5.448 Y0.417 E0.04553
G1 X5.107 Y1.064 E0.05108
G1 X4.91 Y1.638 E0.04239
G1 X4.879 Y2.192 E0.03876
G1 X4.699 Y3.099 E0.06459
G1 X4.351 Y3.938 E0.06344
G1 X3.84 Y4.703 E0.06426
G1 X3.759 Y4.784 E0.008
G1 X3.568 Y4.975 E0.01887
G1 X3.204 Y5.339 E0.03596
G1 X2.866 Y5.59 E0.02941
G1 X2.84 Y5.61 E0.00229
G1 X2.79 Y5.636 E0.00394
G1 X2.042 Y6.036 E0.05925
G1 X2.026 Y6.045 E0.00128
G1 X1.975 Y6.063 E0.00378
G1 X1.606 Y6.197 E0.02742
G1 X1.091 Y6.299 E0.03667
G1 X0.711 Y6.375 E0.02707
G1 X0.23 Y6.4 E0.03364
G1 X0.176 Y6.4 E0.00377
G1 X-.176 Y6.4 E0.02459
G1 X-.245 Y6.4 E0.00482
G1 X-1.053 Y6.321 E0.0567
G1 X-1.157 Y6.31 E0.0073
G1 X-1.598 Y6.2 E0.03175
G1 X-1.996 Y6.035 E0.03009
G1 X-2.438 Y5.851 E0.03344
G1 X-2.828 Y5.591 E0.03274
G1 X-3.203 Y5.34 E0.03152
G1 X-3.573 Y4.97 E0.03655
G1 X-3.763 Y4.78 E0.01877
G1 X-3.84 Y4.703 E0.00761
G1 X-4.351 Y3.939 E0.0642
G1 X-4.541 Y3.539 E0.03093
G1 X-4.81 Y2.654 E0.06461
G1 X-4.899 Y1.75 E0.06345
G1 X-4.891 Y1.356 E0.02753
G1 X-5.057 Y1.356 E0.01159
G1 X-5.156 Y1.064 E0.02154
G1 X-5.494 Y0.423 E0.05061
G1 X-5.889 Y-.103 E0.04594
G1 X-11.55 Y-.1 E0.3954
G1 X-11.9 Y-.1 E0.02445
G1 X-11.9 Y-.45 E0.01582
G1 X-11.9 Y-6.4 E0.41559
G1 X-9.705 Y-6.4 E0.15331
G1 X-8.939 Y-5.71 E0.07201
G1 X-8.265 Y-5.104 E0.06331
G1 X-9.171 Y-5.103 E0.03375
G1 X-9.172 Y-5.102 E0.0001
G1 X-9.59 Y-5.1 E0.0292
G1 X-9.828 Y-5.1 E0.01662
G1 X-9.828 Y-4.402 E0.04875
G1 X-9.59 Y-4.401 E0.0166
G1 X-9.59 Y-1.4 E0.20961
G1 X-2.284 Y-1.398 E0.5103
G1 X-2.284 Y-.103 E0.09045
G1 X-3.159 Y-.103 E0.06112
G1 X-3.555 Y0.422 E0.04593
G1 X-3.893 Y1.064 E0.05068
G1 X-4.094 Y1.652 E0.0434
G1 X-4.081 Y2.188 E0.03745
G1 X-3.917 Y3.014 E0.05882
G1 X-3.59 Y3.803 E0.05965
G1 X-3.265 Y4.289 E0.04084
G1 X-3.116 Y4.512 E0.01803
G1 X-2.746 Y4.882 E0.03379
G1 X-2.512 Y5.116 E0.01955
G1 X-2.122 Y5.377 E0.02668
G1 X-1.81 Y5.585 E0.01887
G1 X-1.412 Y5.75 E0.02087
G1 X-1.014 Y5.916 E0.01921
G1 X-.176 Y6.083 E0.0319
G1 X0.176 Y6.083 E0.01113
G1 X0.635 Y5.993 E0.01634
G1 X1.014 Y5.917 E0.01497
G1 X1.42 Y5.749 E0.0181
G1 X1.803 Y5.59 E0.02066
G1 X2.512 Y5.116 E0.04663
G1 X2.746 Y4.882 E0.02008
G1 X3.11 Y4.518 E0.03323
G1 X3.261 Y4.293 E0.01821
G1 X3.585 Y3.81 E0.04062
G1 X3.917 Y3.014 E0.06024
G1 X4.079 Y2.192 E0.05852
G1 X4.117 Y1.356 E0.05845
G0 F15000 X3.943 Y1.356
G0 X3.887 Y1.19
G0 X4.338 Y-.116
;TYPE:SKIN
G1 F2700 X4.614 Y-.335 E0.01502
G1 X5.833 Y-.6 E0.05319
G0 F15000 X6.178 Y-.75
G1 F2700 X6.673 Y-.75 E0.03082
G1 X9.643 Y-.75 E0.18494
G1 X9.891 Y-.996 E0.02175
G1 X10.679 Y-1.2 E0.05069
G1 X10.739 Y-4.109 E0.18118
G1 X10.916 Y-5.416 E0.08213
G1 F3600 E-6
G1 F3600 Z1.24
G0 F15000 X-4.319 Y-.359 Z1.24
G1 F3600 Z0.24
G1 F3600 E6
G1 F2700 X-4.628 Y-.174 E0.01394
G1 X-6.195 Y-.751 E0.06463
G1 X-5.571 Y-1.116 E0.02798
G0 F15000 X-6.69 Y-.751
G1 F2700 X-7.185 Y-.751 E0.03638
G1 X-9.657 Y-.748 E0.1817
G1 X-10.743 Y-1.339 E0.09088
G1 X-10.71 Y-3.285 E0.14306
G1 F3600 E-6
G1 F3600 Z1.24
G0 F15000 X-10.974 Y-1.074 Z1.24
G1 F3600 Z0.24
G1 F3600 E6
G1 F2700 X-10.924 Y-1.024 E0.00247
G0 F15000 X-10.079 Y-.675
G1 F2700 X-9.731 Y-.326 E0.01721
G1 F3600 E-6
G1 F3600 Z1.24
;MESH:NONMESH
G0 F15000 X3.541 Y-.698 Z1.24
;TIME_ELAPSED:18.637303
;LAYER:1
M140 S65
M106 S255
;MESH:T-Slot Wire Clip.stl
G0 X3.541 Y-.698 Z1.48
;TYPE:WALL-INNER
G1 F3600 Z0.48
G1 F3600 E6
G1 F1010.7 X5.414 Y-.699 E0.13082
G1 X4.855 Y0.04 E0.06472
G1 X4.691 Y0.351 E0.02456
G1 X4.53 Y0.656 E0.02409
G1 X4.424 Y0.656 E0.0074
G1 X4.264 Y0.352 E0.01081
G1 X4.1 Y0.04 E0.01956
G1 X3.541 Y-.698 E0.06466
G1 F3600 E-6
G1 F3600 Z1.48
G0 F15000 X10.28 Y-.801 Z1.48
G1 F3600 Z0.48
G1 F3600 E6
G1 F1010.7 X10.28 Y-5.7 E0.34218
G1 X11.2 Y-5.7 E0.06426
G1 X11.2 Y-1.149 E0.31787
G1 X11.2 Y-.8 E0.02438
G1 X10.851 Y-.8 E0.01577
G1 X10.28 Y-.801 E0.03988
G1 F3600 E-6
G1 F3600 Z1.48
G0 F15000 X-3.588 Y-.698 Z1.48
G1 F3600 Z0.48
G1 F3600 E6
G1 F1010.7 X-4.157 Y0.06 E0.0662
G1 X-4.315 Y0.361 E0.02374
G1 X-4.47 Y0.656 E0.02328
G1 X-4.575 Y0.656 E0.00733
G1 X-4.729 Y0.362 E0.01021
G1 X-4.889 Y0.06 E0.01851
G1 X-5.456 Y-.699 E0.06617
G1 X-3.588 Y-.698 E0.13047
G1 F3600 E-6
G1 F3600 Z1.48
G0 F15000 X-10.29 Y-.801 Z1.48
G1 F3600 Z0.48
G1 F3600 E6
G1 F1010.7 X-10.851 Y-.8 E0.03918
G1 X-11.2 Y-.8 E0.02438
G1 X-11.2 Y-1.149 E0.01577
G1 X-11.2 Y-5.7 E0.31787
G1 X-10.48 Y-5.7 E0.05029
G1 X-10.48 Y-3.707 E0.1392
G1 X-10.29 Y-3.706 E0.01327
G1 X-10.29 Y-.801 E0.2029
G1 F3600 E-6
G1 F3600 Z1.48
G0 F15000 X4.12 Y1.356 Z1.48
;TYPE:WALL-OUTER
G1 F3600 Z0.48
G1 F3600 E6
G1 F1010.7 X3.947 Y1.356 E0.01208
G1 X3.849 Y1.065 E0.02145
G1 X3.507 Y0.417 E0.05118
G1 X3.114 Y-.103 E0.04553
G1 X2.284 Y-.103 E0.05797
G1 X2.284 Y-1.398 E0.09045
G1 X9.58 Y-1.4 E0.5096
G1 X9.58 Y-5.1 E0.25843
G1 X9.185 Y-5.101 E0.02759
G1 X9.184 Y-5.101 E0.00007
G1 X8.287 Y-5.101 E0.06265
G1 X8.949 Y-5.707 E0.03347
G1 X9.704 Y-6.4 E0.07158
G1 X11.9 Y-6.4 E0.15338
G1 X11.9 Y-.45 E0.41559
G1 X11.9 Y-.1 E0.02445
G1 X11.55 Y-.1 E0.01582
G1 X5.841 Y-.103 E0.39875
G1 X5.448 Y0.417 E0.04553
G1 X5.107 Y1.064 E0.05108
G1 X4.91 Y1.638 E0.04239
G1 X4.878 Y2.199 E0.03925
G1 X4.805 Y2.673 E0.0335
G1 X4.543 Y3.53 E0.06259
G1 X4.126 Y4.316 E0.06215
G1 X3.85 Y4.693 E0.03263
G1 X3.756 Y4.787 E0.00929
G1 X3.557 Y4.987 E0.01971
G1 X3.214 Y5.33 E0.03388
G1 X2.868 Y5.589 E0.03019
G1 X2.841 Y5.61 E0.00239
G1 X2.792 Y5.636 E0.00387
G1 X2.046 Y6.036 E0.05912
G1 X1.976 Y6.061 E0.00519
G1 X1.603 Y6.198 E0.02775
G1 X1.091 Y6.3 E0.03646
G1 X0.724 Y6.373 E0.02614
G1 X0.248 Y6.4 E0.0333
G1 X0.176 Y6.4 E0.00503
G1 X-.176 Y6.4 E0.02459
G1 X-.237 Y6.4 E0.00426
G1 X-1.053 Y6.322 E0.05725
G1 X-1.135 Y6.314 E0.00575
G1 X-1.597 Y6.2 E0.03324
G1 X-1.997 Y6.055 E0.02972
G1 X-2.045 Y6.037 E0.00358
G1 X-2.064 Y6.027 E0.0015
G1 X-2.791 Y5.639 E0.05756
G1 X-2.819 Y5.624 E0.00222
G1 X-2.862 Y5.593 E0.0037
G1 X-3.201 Y5.343 E0.02942
G1 X-3.547 Y5.027 E0.03273
G1 X-3.626 Y4.931 E0.00868
G1 X-3.887 Y4.612 E0.02879
G1 X-4.104 Y4.347 E0.02392
G1 X-4.348 Y3.946 E0.03279
G1 X-4.691 Y3.12 E0.06247
G1 X-4.809 Y2.662 E0.03303
G1 X-4.898 Y1.764 E0.06303
G1 X-4.898 Y1.356 E0.0285
G1 X-5.052 Y1.356 E0.01076
G1 X-5.151 Y1.064 E0.02154
G1 X-5.483 Y0.435 E0.04968
G1 X-5.885 Y-.103 E0.04691
G1 X-11.55 Y-.1 E0.39568
G1 X-11.9 Y-.1 E0.02445
G1 X-11.9 Y-.45 E0.01582
G1 X-11.9 Y-6.4 E0.41559
G1 X-9.705 Y-6.4 E0.15331
G1 X-8.941 Y-5.712 E0.07181
G1 X-8.267 Y-5.105 E0.06335
G1 X-9.174 Y-5.103 E0.03381
G1 X-9.592 Y-5.101 E0.0292
G1 X-9.78 Y-5.1 E0.01313
G1 X-9.78 Y-4.403 E0.04868
G1 X-9.59 Y-4.402 E0.01323
G1 X-9.59 Y-1.4 E0.20968
G1 X-2.284 Y-1.398 E0.5103
G1 X-2.284 Y-.103 E0.09045
G1 X-3.16 Y-.103 E0.06119
G1 X-3.563 Y0.435 E0.04695
G1 X-3.893 Y1.064 E0.04961
G1 X-4.095 Y1.653 E0.04349
G1 X-4.079 Y2.204 E0.0385
G1 X-3.916 Y3.014 E0.05771
G1 X-3.59 Y3.803 E0.05963
G1 X-3.345 Y4.169 E0.03076
G1 X-3.116 Y4.512 E0.02798
G1 X-3.074 Y4.554 E0.00382
G1 X-2.743 Y4.885 E0.03071
G1 X-2.512 Y5.116 E0.0198
G1 X-2.489 Y5.131 E0.00148
G1 X-1.824 Y5.577 E0.04378
G1 X-1.409 Y5.75 E0.02256
