;FLAVOR:RepRap
;TIME:7032
;Filament used: 15.6994m, 0m
;Layer height: 0.24
;MINX:-66.858
;MINY:-43.49
;MINZ:0.24
;MAXX:66.858
;MAXY:43.49
;MAXZ:25.72
;Generated with Cura_SteamEngine 4.6.2
T0
M190 S65
M104 S220
M109 S220
M82 ;absolute extrusion mode
;=== SeeMeCNC PRINTER SETTINGS =========
;=== OPTIMIZED FOR CURA 4.6.2  =========
M203 Z10000  ;===PRINTER BEGIN G-CODE===
G28
G1 X0 Y-130 Z0.3 F8000
G1 F200 E3
G92 E0       ;==========================
M82 ;absolute extrusion mode
G91           ;=======EXTRUDER 1 BEGIN GCODE=======
G1 Z1 F10000
G90
G1 X0 Y-130 F10000
T0 P0         ;=== SELECT TOOL DO NOT RUN MACROS ==
G92 E0
G1 E145 F4000
G92 E0
G1 E15 F500
G92 E0        ;====================================
M83 ;relative extrusion mode
M83 ;relative extrusion mode
G1 F3600 E-6
;LAYER_COUNT:105
;LAYER:0
M107
G1 F3600 Z1.24
G0 F15000 X59.219 Y-42.718 Z1.24
;TYPE:SKIRT
G1 F3600 Z0.24
G1 F3600 E6
G1 F2700 X59.816 Y-42.643 E0.04203
G1 X60.532 Y-42.482 E0.05126
G1 X61.111 Y-42.294 E0.04252
G1 X61.622 Y-42.082 E0.03864
G1 X62.131 Y-41.825 E0.03983
G1 X62.645 Y-41.519 E0.04178
G1 X63.131 Y-41.174 E0.04163
G1 X63.727 Y-40.664 E0.05479
G1 X64.13 Y-40.253 E0.0402
G1 X64.543 Y-39.763 E0.04476
G1 X64.874 Y-39.298 E0.03987
G1 X65.15 Y-38.841 E0.03729
G1 X65.406 Y-38.351 E0.03861
G1 X65.663 Y-37.738 E0.04643
G1 X65.827 Y-37.241 E0.03655
G1 X65.973 Y-36.678 E0.04062
G1 X66.079 Y-36.07 E0.04311
G1 X66.133 Y-35.458 E0.04291
G1 X66.157 Y-34.413 E0.07301
G1 X66.158 Y34.345 E4.80249
G1 X66.148 Y35.077 E0.05113
G1 X66.111 Y35.784 E0.04945
G1 X66.03 Y36.381 E0.04208
G1 X65.925 Y36.884 E0.03589
G1 X65.733 Y37.544 E0.04801
G1 X65.468 Y38.213 E0.05026
G1 X65.192 Y38.765 E0.04311
G1 X64.889 Y39.275 E0.04143
G1 X64.535 Y39.772 E0.04262
G1 X64.156 Y40.224 E0.0412
G1 X63.621 Y40.762 E0.05299
G1 X63.129 Y41.176 E0.04491
G1 X62.657 Y41.512 E0.04047
G1 X62.169 Y41.804 E0.03972
G1 X61.688 Y42.052 E0.0378
G1 X61.117 Y42.292 E0.04326
G1 X60.597 Y42.463 E0.03823
G1 X60.041 Y42.606 E0.0401
G1 X59.319 Y42.725 E0.05111
G1 X58.563 Y42.776 E0.05292
G1 X57.782 Y42.789 E0.05456
G1 X-57.712 Y42.79 E8.06683
G1 X-58.445 Y42.78 E0.0512
G1 X-59.152 Y42.744 E0.04945
G1 X-59.738 Y42.663 E0.04132
G1 X-60.248 Y42.558 E0.03637
G1 X-60.912 Y42.365 E0.0483
G1 X-61.592 Y42.095 E0.0511
G1 X-62.131 Y41.825 E0.04211
G1 X-62.645 Y41.519 E0.04178
G1 X-63.131 Y41.174 E0.04163
G1 X-63.727 Y40.664 E0.05479
G1 X-64.131 Y40.252 E0.0403
G1 X-64.548 Y39.757 E0.04521
G1 X-64.882 Y39.286 E0.04033
G1 X-65.172 Y38.801 E0.03947
G1 X-65.456 Y38.24 E0.04392
G1 X-65.774 Y37.418 E0.06156
G1 X-65.974 Y36.673 E0.05388
G1 X-66.093 Y35.951 E0.05111
G1 X-66.144 Y35.195 E0.05292
G1 X-66.157 Y34.413 E0.05463
G1 X-66.158 Y-34.345 E4.80249
G1 X-66.148 Y-35.077 E0.05113
G1 X-66.111 Y-35.784 E0.04945
G1 X-66.031 Y-36.37 E0.04131
G1 X-65.926 Y-36.88 E0.03637
G1 X-65.733 Y-37.544 E0.0483
G1 X-65.463 Y-38.224 E0.0511
G1 X-65.185 Y-38.781 E0.04348
G1 X-64.887 Y-39.276 E0.04036
G1 X-64.54 Y-39.766 E0.04194
G1 X-64.037 Y-40.354 E0.05405
G1 X-63.615 Y-40.768 E0.04129
G1 X-63.125 Y-41.179 E0.04467
G1 X-62.657 Y-41.512 E0.04012
G1 X-62.169 Y-41.804 E0.03972
G1 X-61.622 Y-42.081 E0.04283
G1 X-60.841 Y-42.389 E0.05864
G1 X-60.307 Y-42.544 E0.03884
G1 X-59.745 Y-42.662 E0.04011
G1 X-59.032 Y-42.752 E0.0502
G1 X-58.438 Y-42.78 E0.04153
G1 X-57.782 Y-42.789 E0.04582
G1 X57.712 Y-42.79 E8.06683
G1 X58.457 Y-42.78 E0.05204
G1 X59.219 Y-42.718 E0.0534
G0 F15000 X59.285 Y-43.414
G1 F2700 X59.904 Y-43.338 E0.04356
G1 X60.465 Y-43.226 E0.03996
G1 X61.051 Y-43.057 E0.0426
G1 X61.569 Y-42.866 E0.03856
G1 X62.184 Y-42.59 E0.04708
G1 X62.739 Y-42.285 E0.04423
G1 X63.259 Y-41.946 E0.04336
G1 X63.856 Y-41.488 E0.05256
G1 X64.453 Y-40.933 E0.05693
G1 X64.906 Y-40.429 E0.04733
G1 X65.242 Y-39.993 E0.03845
G1 X65.628 Y-39.414 E0.0486
G1 X65.924 Y-38.882 E0.04252
G1 X66.202 Y-38.278 E0.04644
G1 X66.421 Y-37.691 E0.04376
G1 X66.587 Y-37.125 E0.0412
G1 X66.714 Y-36.526 E0.04277
G1 X66.804 Y-35.884 E0.04528
G1 X66.845 Y-35.186 E0.04884
G1 X66.857 Y-34.422 E0.05337
G1 X66.858 Y34.345 E4.80312
G1 X66.848 Y35.087 E0.05183
G1 X66.825 Y35.626 E0.03768
G1 X66.777 Y36.133 E0.03557
G1 X66.674 Y36.745 E0.04335
G1 X66.516 Y37.38 E0.0457
G1 X66.277 Y38.091 E0.05239
G1 X65.971 Y38.788 E0.05317
G1 X65.653 Y39.372 E0.04645
G1 X65.321 Y39.881 E0.04245
G1 X64.9 Y40.436 E0.04866
G1 X64.523 Y40.86 E0.03963
G1 X64.099 Y41.273 E0.04134
G1 X63.543 Y41.741 E0.05076
G1 X63.055 Y42.087 E0.04178
G1 X62.514 Y42.413 E0.04412
G1 X61.972 Y42.692 E0.04258
G1 X61.378 Y42.941 E0.04499
G1 X60.8 Y43.133 E0.04254
G1 X60.171 Y43.293 E0.04533
G1 X59.675 Y43.382 E0.0352
G1 X59.068 Y43.451 E0.04267
G1 X58.448 Y43.48 E0.04335
G1 X57.792 Y43.489 E0.04582
G1 X-57.712 Y43.49 E8.06753
G1 X-58.455 Y43.48 E0.0519
G1 X-58.99 Y43.457 E0.0374
G1 X-59.53 Y43.405 E0.03789
G1 X-60.099 Y43.309 E0.0403
G1 X-60.744 Y43.148 E0.04643
G1 X-61.461 Y42.908 E0.05281
G1 X-62.184 Y42.59 E0.05517
G1 X-62.739 Y42.285 E0.04423
G1 X-63.259 Y41.946 E0.04336
G1 X-63.856 Y41.488 E0.05256
G1 X-64.452 Y40.934 E0.05683
G1 X-64.909 Y40.427 E0.04767
G1 X-65.257 Y39.973 E0.03995
G1 X-65.649 Y39.379 E0.04971
G1 X-65.934 Y38.863 E0.04117
G1 X-66.294 Y38.048 E0.06223
G1 X-66.574 Y37.171 E0.0643
G1 X-66.717 Y36.507 E0.04744
G1 X-66.819 Y35.7 E0.05681
G1 X-66.848 Y35.079 E0.04342
G1 X-66.857 Y34.422 E0.04589
G1 X-66.858 Y-34.345 E4.80312
G1 X-66.848 Y-35.087 E0.05183
G1 X-66.825 Y-35.626 E0.03768
G1 X-66.774 Y-36.151 E0.03684
G1 X-66.677 Y-36.731 E0.04107
G1 X-66.516 Y-37.376 E0.04643
G1 X-66.276 Y-38.093 E0.05281
G1 X-65.97 Y-38.792 E0.0533
G1 X-65.643 Y-39.389 E0.04754
G1 X-65.311 Y-39.895 E0.04227
G1 X-64.86 Y-40.483 E0.05176
G1 X-64.295 Y-41.091 E0.05797
G1 X-63.796 Y-41.539 E0.04684
G1 X-63.352 Y-41.88 E0.0391
G1 X-62.747 Y-42.281 E0.0507
G1 X-62.235 Y-42.563 E0.04083
G1 X-61.435 Y-42.918 E0.06113
G1 X-60.8 Y-43.133 E0.04683
G1 X-60.171 Y-43.293 E0.04533
G1 X-59.675 Y-43.382 E0.0352
G1 X-59.068 Y-43.451 E0.04267
G1 X-58.448 Y-43.48 E0.04335
G1 X-57.792 Y-43.489 E0.04582
G1 X57.712 Y-43.49 E8.06753
G1 X58.467 Y-43.48 E0.05274
G1 X59.285 Y-43.414 E0.05732
G1 F3600 E-6
G1 F3600 Z1.24
;MESH:Serial Number Plate Holder.STL
G0 F15000 X59.657 Y-32.202 Z1.24
;TYPE:WALL-INNER
G1 F3600 Z0.24
G1 F3600 E6
G1 F2700 X-59.309 Y-32.201 E8.30933
G1 X-59.658 Y-32.201 E0.02438
G1 X-59.658 Y-32.55 E0.01577
G1 X-59.658 Y-34.958 E0.16819
G1 X-59.644 Y-35.199 E0.01686
G1 X-59.623 Y-35.321 E0.00865
G1 X-59.585 Y-35.453 E0.00959
G1 X-59.533 Y-35.577 E0.00939
G1 X-59.455 Y-35.72 E0.01138
G1 X-59.387 Y-35.816 E0.00822
G1 X-59.291 Y-35.923 E0.01004
G1 X-59.184 Y-36.019 E0.01004
G1 X-59.088 Y-36.087 E0.00822
G1 X-58.945 Y-36.165 E0.01138
G1 X-58.821 Y-36.217 E0.00939
G1 X-58.689 Y-36.255 E0.00959
G1 X-58.567 Y-36.276 E0.00865
G1 X-58.335 Y-36.289 E0.01623
G1 X58.325 Y-36.29 E8.14827
G1 X58.567 Y-36.276 E0.01693
G1 X58.689 Y-36.255 E0.00865
G1 X58.821 Y-36.217 E0.00959
G1 X58.945 Y-36.165 E0.00939
G1 X59.088 Y-36.087 E0.01138
G1 X59.184 Y-36.019 E0.00822
G1 X59.291 Y-35.923 E0.01004
G1 X59.387 Y-35.816 E0.01004
G1 X59.455 Y-35.72 E0.00822
G1 X59.533 Y-35.577 E0.01138
G1 X59.585 Y-35.453 E0.00939
G1 X59.623 Y-35.321 E0.00959
G1 X59.644 Y-35.199 E0.00865
G1 X59.657 Y-34.968 E0.01616
G1 X59.657 Y-32.202 E0.19319
G0 F15000 X60.357 Y-31.502
G1 F2700 X-60.009 Y-31.501 E8.40712
G1 X-60.358 Y-31.501 E0.02438
G1 X-60.358 Y-31.85 E0.01577
G1 X-60.358 Y-34.981 E0.21869
G1 X-60.341 Y-35.275 E0.02057
G1 X-60.306 Y-35.482 E0.01466
G1 X-60.247 Y-35.683 E0.01463
G1 X-60.164 Y-35.884 E0.01519
G1 X-60.052 Y-36.088 E0.01625
G1 X-59.931 Y-36.258 E0.01457
G1 X-59.787 Y-36.419 E0.01509
G1 X-59.626 Y-36.563 E0.01509
G1 X-59.59 Y-36.588 E0.00306
G1 X-59.456 Y-36.684 E0.01151
G1 X-59.252 Y-36.796 E0.01625
G1 X-59.051 Y-36.879 E0.01519
G1 X-58.85 Y-36.938 E0.01463
G1 X-58.643 Y-36.973 E0.01466
G1 X-58.356 Y-36.989 E0.02008
G1 X58.348 Y-36.99 E8.15134
G1 X58.643 Y-36.973 E0.02064
G1 X58.85 Y-36.938 E0.01466
G1 X59.051 Y-36.879 E0.01463
G1 X59.252 Y-36.796 E0.01519
G1 X59.456 Y-36.684 E0.01625
G1 X59.626 Y-36.563 E0.01457
G1 X59.787 Y-36.419 E0.01509
G1 X59.931 Y-36.258 E0.01509
G1 X59.956 Y-36.222 E0.00306
G1 X60.052 Y-36.088 E0.01151
G1 X60.164 Y-35.884 E0.01625
G1 X60.247 Y-35.683 E0.01519
G1 X60.306 Y-35.482 E0.01463
G1 X60.341 Y-35.275 E0.01466
G1 X60.357 Y-34.989 E0.02001
G1 X60.357 Y-31.502 E0.24355
G0 F15000 X61.057 Y-30.802
G1 F2700 X-60.709 Y-30.801 E8.5049
G1 X-61.058 Y-30.801 E0.02438
G1 X-61.058 Y-31.15 E0.01577
G1 X-61.058 Y-35.005 E0.26926
G1 X-61.038 Y-35.349 E0.02407
G1 X-60.989 Y-35.641 E0.02068
G1 X-60.909 Y-35.915 E0.01994
G1 X-60.797 Y-36.186 E0.02048
G1 X-60.643 Y-36.464 E0.0222
G1 X-60.477 Y-36.698 E0.02004
G1 X-60.283 Y-36.915 E0.02033
G1 X-60.066 Y-37.109 E0.02033
G1 X-59.832 Y-37.275 E0.02004
G1 X-59.795 Y-37.295 E0.00294
G1 X-59.554 Y-37.429 E0.01926
G1 X-59.283 Y-37.541 E0.02048
G1 X-59.009 Y-37.621 E0.01994
G1 X-58.759 Y-37.662 E0.01769
G1 X-58.717 Y-37.67 E0.00299
G1 X-58.377 Y-37.689 E0.02378
G1 X58.372 Y-37.69 E8.15448
G1 X58.717 Y-37.67 E0.02414
G1 X59.009 Y-37.621 E0.02068
G1 X59.283 Y-37.541 E0.01994
G1 X59.554 Y-37.429 E0.02048
G1 X59.832 Y-37.275 E0.0222
G1 X60.066 Y-37.109 E0.02004
G1 X60.283 Y-36.915 E0.02033
G1 X60.477 Y-36.698 E0.02033
G1 X60.643 Y-36.464 E0.02004
G1 X60.663 Y-36.427 E0.00294
G1 X60.797 Y-36.186 E0.01926
G1 X60.909 Y-35.915 E0.02048
G1 X60.989 Y-35.641 E0.01994
G1 X61.03 Y-35.391 E0.01769
G1 X61.038 Y-35.349 E0.00299
G1 X61.057 Y-35.01 E0.02372
G1 X61.057 Y-30.802 E0.29391
G0 F15000 X61.757 Y-30.102
G1 F2700 X-61.409 Y-30.101 E8.60269
G1 X-61.758 Y-30.101 E0.02438
G1 X-61.758 Y-30.45 E0.01577
G1 X-61.758 Y-35.029 E0.31983
G1 X-61.735 Y-35.425 E0.02771
G1 X-61.672 Y-35.796 E0.02628
G1 X-61.57 Y-36.148 E0.0256
G1 X-61.428 Y-36.492 E0.02599
G1 X-61.236 Y-36.838 E0.02764
G1 X-61.029 Y-37.131 E0.02506
G1 X-60.779 Y-37.411 E0.02622
G1 X-60.499 Y-37.661 E0.02622
G1 X-60.206 Y-37.868 E0.02506
G1 X-59.86 Y-38.06 E0.02764
G1 X-59.516 Y-38.202 E0.02599
G1 X-59.204 Y-38.292 E0.02268
G1 X-59.164 Y-38.304 E0.00292
G1 X-58.793 Y-38.367 E0.02628
G1 X-58.398 Y-38.389 E0.02763
G1 X58.395 Y-38.39 E8.15756
G1 X58.793 Y-38.367 E0.02785
G1 X59.164 Y-38.304 E0.02628
G1 X59.516 Y-38.202 E0.0256
G1 X59.86 Y-38.06 E0.02599
G1 X60.206 Y-37.868 E0.02764
G1 X60.499 Y-37.661 E0.02506
G1 X60.779 Y-37.411 E0.02622
G1 X61.029 Y-37.131 E0.02622
G1 X61.236 Y-36.838 E0.02506
G1 X61.428 Y-36.492 E0.02764
G1 X61.57 Y-36.148 E0.02599
G1 X61.66 Y-35.836 E0.02268
G1 X61.672 Y-35.796 E0.00292
G1 X61.735 Y-35.425 E0.02628
G1 X61.757 Y-35.031 E0.02756
G1 X61.757 Y-30.102 E0.34427
G1 F3600 E-6
G1 F3600 Z1.24
G0 F15000 X61.409 Y30.101 Z1.24
G1 F3600 Z0.24
G1 F3600 E6
G1 F2700 X61.758 Y30.101 E0.02438
G1 X61.758 Y30.45 E0.01577
G1 X61.758 Y35.029 E0.31983
G1 X61.735 Y35.425 E0.02771
G1 X61.672 Y35.796 E0.02628
G1 X61.57 Y36.148 E0.0256
G1 X61.428 Y36.492 E0.02599
G1 X61.236 Y36.838 E0.02764
G1 X61.029 Y37.131 E0.02506
G1 X60.779 Y37.411 E0.02622
G1 X60.499 Y37.661 E0.02622
G1 X60.206 Y37.868 E0.02506
G1 X59.86 Y38.06 E0.02764
G1 X59.516 Y38.202 E0.02599
G1 X59.204 Y38.292 E0.02268
G1 X59.164 Y38.304 E0.00292
G1 X58.793 Y38.367 E0.02628
G1 X58.398 Y38.389 E0.02763
G1 X-58.395 Y38.39 E8.15756
G1 X-58.793 Y38.367 E0.02785
G1 X-59.164 Y38.304 E0.02628
G1 X-59.516 Y38.202 E0.0256
G1 X-59.86 Y38.06 E0.02599
G1 X-60.206 Y37.868 E0.02764
G1 X-60.499 Y37.661 E0.02506
G1 X-60.779 Y37.411 E0.02622
G1 X-61.029 Y37.131 E0.02622
G1 X-61.236 Y36.838 E0.02506
G1 X-61.428 Y36.492 E0.02764
G1 X-61.57 Y36.148 E0.02599
G1 X-61.66 Y35.836 E0.02268
G1 X-61.672 Y35.796 E0.00292
G1 X-61.735 Y35.425 E0.02628
G1 X-61.757 Y35.031 E0.02756
G1 X-61.757 Y30.102 E0.34427
G1 X61.409 Y30.101 E8.60269
G0 F15000 X60.709 Y30.801
G1 F2700 X61.058 Y30.801 E0.02438
G1 X61.058 Y31.15 E0.01577
G1 X61.058 Y35.005 E0.26926
G1 X61.038 Y35.349 E0.02407
G1 X60.989 Y35.641 E0.02068
G1 X60.909 Y35.915 E0.01994
G1 X60.797 Y36.186 E0.02048
G1 X60.643 Y36.464 E0.0222
G1 X60.477 Y36.698 E0.02004
G1 X60.283 Y36.915 E0.02033
G1 X60.066 Y37.109 E0.02033
G1 X59.832 Y37.275 E0.02004
G1 X59.795 Y37.295 E0.00294
G1 X59.554 Y37.429 E0.01926
G1 X59.283 Y37.541 E0.02048
G1 X59.009 Y37.621 E0.01994
G1 X58.759 Y37.662 E0.01769
G1 X58.717 Y37.67 E0.00299
G1 X58.377 Y37.689 E0.02378
G1 X-58.372 Y37.69 E8.15448
G1 X-58.717 Y37.67 E0.02414
G1 X-59.009 Y37.621 E0.02068
G1 X-59.283 Y37.541 E0.01994
G1 X-59.554 Y37.429 E0.02048
G1 X-59.832 Y37.275 E0.0222
G1 X-60.066 Y37.109 E0.02004
G1 X-60.283 Y36.915 E0.02033
G1 X-60.477 Y36.698 E0.02033
G1 X-60.643 Y36.464 E0.02004
G1 X-60.663 Y36.427 E0.00294
G1 X-60.797 Y36.186 E0.01926
G1 X-60.909 Y35.915 E0.02048
G1 X-60.989 Y35.641 E0.01994
G1 X-61.03 Y35.391 E0.01769
G1 X-61.038 Y35.349 E0.00299
G1 X-61.057 Y35.01 E0.02372
G1 X-61.057 Y30.802 E0.29391
G1 X60.709 Y30.801 E8.5049
G0 F15000 X60.009 Y31.501
G1 F2700 X60.358 Y31.501 E0.02438
G1 X60.358 Y31.85 E0.01577
G1 X60.358 Y34.981 E0.21869
G1 X60.341 Y35.275 E0.02057
G1 X60.306 Y35.482 E0.01466
G1 X60.247 Y35.683 E0.01463
G1 X60.164 Y35.884 E0.01519
G1 X60.052 Y36.088 E0.01625
G1 X59.931 Y36.258 E0.01457
G1 X59.787 Y36.419 E0.01509
G1 X59.626 Y36.563 E0.01509
G1 X59.59 Y36.588 E0.00306
G1 X59.456 Y36.684 E0.01151
G1 X59.252 Y36.796 E0.01625
G1 X59.051 Y36.879 E0.01519
G1 X58.85 Y36.938 E0.01463
G1 X58.643 Y36.973 E0.01466
G1 X58.356 Y36.989 E0.02008
G1 X-58.348 Y36.99 E8.15134
G1 X-58.643 Y36.973 E0.02064
G1 X-58.85 Y36.938 E0.01466
G1 X-59.051 Y36.879 E0.01463
G1 X-59.252 Y36.796 E0.01519
G1 X-59.456 Y36.684 E0.01625
G1 X-59.626 Y36.563 E0.01457
G1 X-59.787 Y36.419 E0.01509
G1 X-59.931 Y36.258 E0.01509
G1 X-59.956 Y36.222 E0.00306
G1 X-60.052 Y36.088 E0.01151
G1 X-60.164 Y35.884 E0.01625
G1 X-60.247 Y35.683 E0.01519
G1 X-60.306 Y35.482 E0.01463
G1 X-60.341 Y35.275 E0.01466
G1 X-60.357 Y34.989 E0.02001
G1 X-60.357 Y31.502 E0.24355
G1 X60.009 Y31.501 E8.40712
G0 F15000 X59.658 Y32.201
G1 F2700 X59.658 Y32.55 E0.02438
G1 X59.658 Y34.95 E0.16763
G1 X59.644 Y35.199 E0.01742
G1 X59.623 Y35.321 E0.00865
G1 X59.585 Y35.453 E0.00959
G1 X59.533 Y35.577 E0.00939
G1 X59.455 Y35.72 E0.01138
G1 X59.387 Y35.816 E0.00822
G1 X59.291 Y35.923 E0.01004
G1 X59.184 Y36.019 E0.01004
G1 X59.088 Y36.087 E0.00822
G1 X58.945 Y36.165 E0.01138
G1 X58.821 Y36.217 E0.00939
G1 X58.689 Y36.255 E0.00959
G1 X58.567 Y36.276 E0.00865
G1 X58.335 Y36.289 E0.01623
G1 X-58.325 Y36.29 E8.14827
G1 X-58.567 Y36.276 E0.01693
G1 X-58.689 Y36.255 E0.00865
G1 X-58.821 Y36.217 E0.00959
G1 X-58.945 Y36.165 E0.00939
G1 X-59.088 Y36.087 E0.01138
G1 X-59.184 Y36.019 E0.00822
G1 X-59.291 Y35.923 E0.01004
G1 X-59.387 Y35.816 E0.01004
G1 X-59.455 Y35.72 E0.00822
G1 X-59.533 Y35.577 E0.01138
G1 X-59.585 Y35.453 E0.00939
G1 X-59.623 Y35.321 E0.00959
G1 X-59.644 Y35.199 E0.00865
G1 X-59.657 Y34.968 E0.01616
G1 X-59.657 Y32.202 E0.19319
G1 X59.309 Y32.201 E8.30933
G1 X59.658 Y32.201 E0.01577
G1 F3600 E-6
G1 F3600 Z1.24
G0 F15000 X62.326 Y29.401 Z1.24
;TYPE:WALL-OUTER
G1 F3600 Z0.24
G1 F3600 E6
G1 F2700 X62.326 Y-29.402 E4.10717
G1 X42.456 Y-29.402 E1.38785
G1 X-62.326 Y-29.401 E7.31863
G1 X-62.326 Y29.402 E4.10717
G1 X62.326 Y29.401 E8.70648
G0 F15000 X62.326 Y29.051
G0 X62.457 Y29.4
G1 F2700 X62.458 Y35.052 E0.39477
G1 X62.432 Y35.501 E0.03141
G1 X62.356 Y35.951 E0.03188
G1 X62.23 Y36.385 E0.03156
G1 X62.059 Y36.798 E0.03122
G1 X61.835 Y37.203 E0.03233
G1 X61.576 Y37.569 E0.03132
G1 X61.274 Y37.906 E0.03161
G1 X60.937 Y38.208 E0.03161
G1 X60.571 Y38.467 E0.03132
G1 X60.166 Y38.691 E0.03233
G1 X59.753 Y38.862 E0.03122
G1 X59.319 Y38.988 E0.03156
G1 X58.869 Y39.064 E0.03188
G1 X58.419 Y39.089 E0.03148
G1 X-58.418 Y39.09 E8.16063
G1 X-58.869 Y39.064 E0.03155
G1 X-59.319 Y38.988 E0.03188
G1 X-59.753 Y38.862 E0.03156
G1 X-60.166 Y38.691 E0.03122
G1 X-60.571 Y38.467 E0.03233
G1 X-60.937 Y38.208 E0.03132
G1 X-61.274 Y37.906 E0.03161
G1 X-61.576 Y37.569 E0.03161
G1 X-61.835 Y37.203 E0.03132
G1 X-62.059 Y36.798 E0.03233
G1 X-62.23 Y36.385 E0.03122
G1 X-62.356 Y35.951 E0.03156
G1 X-62.432 Y35.501 E0.03188
G1 X-62.457 Y35.052 E0.03141
G1 X-62.457 Y29.402 E0.39463
