;FLAVOR:RepRap
;TIME:7632
;Filament used: 7.69791m, 0m
;Layer height: 0.24
;MINX:-76.3
;MINY:-70.8
;MINZ:0.24
;MAXX:76.3
;MAXY:68.794
;MAXZ:7
;Generated with Cura_SteamEngine 4.6.2
T0
M190 S65
M104 S205
M109 S205
M82 ;absolute extrusion mode
;=== SeeMeCNC PRINTER SETTINGS =========
;=== OPTIMIZED FOR CURA 4.6.2  =========
M203 Z10000  ;===PRINTER BEGIN G-CODE===
G28
G1 X0 Y-130 Z0.3 F8000
G1 F200 E3
G92 E0       ;==========================
M82 ;absolute extrusion mode
G91           ;=======EXTRUDER 1 BEGIN GCODE=======
G1 Z1 F10000
G90
G1 X0 Y-130 F10000
T0 P0         ;=== SELECT TOOL DO NOT RUN MACROS ==
G92 E0
G1 E145 F4000
G92 E0
G1 E15 F500
G92 E0        ;====================================
M83 ;relative extrusion mode
M83 ;relative extrusion mode
G1 F3600 E-6
;LAYER_COUNT:25
;LAYER:0
M107
G1 F3600 Z1.24
G0 F15000 X-36.826 Y-69.872 Z1.24
;TYPE:SKIRT
G1 F3600 Z0.24
G1 F3600 E6
G1 F2700 X-34.064 Y-69.716 E0.19322
G1 X-31.321 Y-69.639 E0.19166
G1 X-28.611 Y-69.639 E0.18928
G1 X-25.864 Y-69.718 E0.19195
G1 X-23.104 Y-69.874 E0.19308
G1 X-20.671 Y-70.077 E0.17053
G1 X-19.71 Y-70.1 E0.06714
G1 X-18.41 Y-70.1 E0.0908
G1 X-16.423 Y-70.072 E0.1388
G1 X-13.561 Y-70.066 E0.1999
G1 X-11.983 Y-70.099 E0.11024
G1 X-10.23 Y-70.1 E0.12244
G1 X-9.532 Y-70.09 E0.04876
G1 X-8.998 Y-70.057 E0.03737
G1 X-6.806 Y-69.871 E0.15365
G1 X-4.064 Y-69.716 E0.19182
G1 X-1.321 Y-69.639 E0.19166
G1 X1.389 Y-69.639 E0.18928
G1 X4.136 Y-69.718 E0.19195
G1 X6.896 Y-69.874 E0.19308
G1 X9.329 Y-70.077 E0.17053
G1 X10.29 Y-70.1 E0.06714
G1 X11.59 Y-70.1 E0.0908
G1 X13.577 Y-70.072 E0.1388
G1 X16.439 Y-70.066 E0.1999
G1 X18.017 Y-70.099 E0.11024
G1 X19.77 Y-70.1 E0.12244
G1 X20.468 Y-70.09 E0.04876
G1 X21.002 Y-70.057 E0.03737
G1 X23.194 Y-69.871 E0.15365
G1 X25.936 Y-69.716 E0.19182
G1 X28.679 Y-69.639 E0.19166
G1 X31.389 Y-69.639 E0.18928
G1 X34.136 Y-69.718 E0.19195
G1 X36.896 Y-69.874 E0.19308
G1 X39.329 Y-70.077 E0.17053
G1 X40.29 Y-70.1 E0.06714
G1 X41.591 Y-70.1 E0.09087
G1 X42.292 Y-70.09 E0.04897
G1 X42.807 Y-70.042 E0.03613
G1 X43.309 Y-69.916 E0.03615
G1 X43.785 Y-69.715 E0.03609
G1 X44.225 Y-69.442 E0.03617
G1 X45.217 Y-68.552 E0.09309
G1 X46.031 Y-67.774 E0.07865
G1 X48.08 Y-65.924 E0.19282
G1 X50.149 Y-64.161 E0.18986
G1 X52.301 Y-62.428 E0.19299
G1 X54.465 Y-60.785 E0.18978
G1 X56.691 Y-59.192 E0.19119
G1 X58.935 Y-57.68 E0.18899
G1 X61.281 Y-56.195 E0.19393
G1 X63.603 Y-54.815 E0.18866
G1 X66.008 Y-53.476 E0.19226
G1 X68.432 Y-52.215 E0.19085
G1 X70.888 Y-51.024 E0.19065
G1 X73.59 Y-49.809 E0.20693
G1 X74.044 Y-49.561 E0.03613
G1 X74.454 Y-49.247 E0.03607
G1 X74.811 Y-48.872 E0.03616
G1 X75.106 Y-48.447 E0.03613
G1 X75.333 Y-47.982 E0.03614
G1 X75.485 Y-47.488 E0.0361
G1 X75.583 Y-46.759 E0.05138
G1 X75.6 Y-40.43 E0.44206
G1 X75.59 Y-39.706 E0.05057
G1 X75.562 Y-39.019 E0.04802
G1 X75.468 Y-37.341 E0.11739
G1 X75.391 Y-34.6 E0.19152
G1 X75.391 Y-31.89 E0.18928
G1 X75.47 Y-29.127 E0.19306
G1 X75.584 Y-26.956 E0.15185
G1 X75.6 Y-26.42 E0.03745
G1 X75.6 Y-20.43 E0.41838
G1 X75.59 Y-19.706 E0.05057
G1 X75.562 Y-19.019 E0.04802
G1 X75.468 Y-17.341 E0.11739
G1 X75.391 Y-14.6 E0.19152
G1 X75.391 Y-11.89 E0.18928
G1 X75.47 Y-9.127 E0.19306
G1 X75.584 Y-6.956 E0.15185
G1 X75.6 Y-6.42 E0.03745
G1 X75.6 Y-.43 E0.41838
G1 X75.59 Y0.294 E0.05057
G1 X75.562 Y0.981 E0.04802
G1 X75.468 Y2.659 E0.11739
G1 X75.391 Y5.4 E0.19152
G1 X75.391 Y8.11 E0.18928
G1 X75.47 Y10.873 E0.19306
G1 X75.584 Y13.044 E0.15185
G1 X75.6 Y13.58 E0.03745
G1 X75.6 Y19.57 E0.41838
G1 X75.59 Y20.294 E0.05057
G1 X75.562 Y20.981 E0.04802
G1 X75.468 Y22.659 E0.11739
G1 X75.391 Y25.4 E0.19152
G1 X75.391 Y28.11 E0.18928
G1 X75.47 Y30.873 E0.19306
G1 X75.584 Y33.044 E0.15185
G1 X75.6 Y33.58 E0.03745
G1 X75.6 Y39.56 E0.41768
G1 X75.59 Y40.287 E0.05078
G1 X75.543 Y40.802 E0.03612
G1 X75.417 Y41.304 E0.03615
G1 X75.215 Y41.78 E0.03612
G1 X74.943 Y42.22 E0.03613
G1 X74.606 Y42.613 E0.03616
G1 X74.213 Y42.949 E0.03611
G1 X72.767 Y43.788 E0.11677
G1 X70.448 Y45.12 E0.18679
G1 X68.165 Y46.519 E0.18702
G1 X64.714 Y48.783 E0.28828
G1 X64.114 Y49.118 E0.048
G1 X63.365 Y49.482 E0.05817
G1 X62.695 Y49.708 E0.04939
G1 X61.843 Y49.913 E0.06121
G1 X59.98 Y50.261 E0.13237
G1 X57.663 Y50.713 E0.16488
G1 X55.06 Y51.295 E0.1863
G1 X52.371 Y51.974 E0.19371
G1 X49.712 Y52.729 E0.19306
G1 X47.126 Y53.541 E0.18932
G1 X44.547 Y54.432 E0.19058
G1 X41.986 Y55.398 E0.19118
G1 X39.46 Y56.435 E0.19072
G1 X36.946 Y57.551 E0.19212
G1 X34.508 Y58.716 E0.18873
G1 X32.044 Y59.981 E0.19346
G1 X30.199 Y60.987 E0.14678
G1 X28.638 Y61.859 E0.12489
G1 X26.456 Y63.116 E0.17588
G1 X24.165 Y64.519 E0.18764
G1 X20.714 Y66.783 E0.28828
G1 X20.114 Y67.118 E0.048
G1 X19.366 Y67.482 E0.0581
G1 X18.699 Y67.707 E0.04917
G1 X17.844 Y67.913 E0.06143
G1 X16.985 Y68.054 E0.0608
G1 X16.249 Y68.092 E0.05148
G1 X15.668 Y68.083 E0.04059
G1 X14.755 Y68.012 E0.06396
G1 X14.16 Y67.947 E0.04181
G1 X11.865 Y67.655 E0.16159
G1 X9.139 Y67.387 E0.19132
G1 X6.398 Y67.195 E0.19192
G1 X3.691 Y67.083 E0.18924
G1 X0.946 Y67.046 E0.19175
G1 X-1.795 Y67.086 E0.19147
G1 X-4.543 Y67.206 E0.19212
G1 X-7.241 Y67.399 E0.18893
G1 X-9.954 Y67.671 E0.19044
G1 X-11.391 Y67.864 E0.10127
G1 X-12.827 Y68.037 E0.10102
G1 X-13.416 Y68.08 E0.04125
G1 X-14.089 Y68.093 E0.04702
G1 X-15.245 Y68.012 E0.08094
G1 X-16.242 Y67.838 E0.07069
G1 X-16.767 Y67.689 E0.03812
G1 X-17.391 Y67.455 E0.04655
G1 X-17.934 Y67.224 E0.04122
G1 X-18.42 Y66.965 E0.03846
G1 X-18.874 Y66.671 E0.03778
G1 X-21.159 Y65.143 E0.19199
G1 X-23.423 Y63.72 E0.18677
G1 X-25.835 Y62.3 E0.1955
G1 X-27.728 Y61.248 E0.15126
G1 X-28.694 Y60.726 E0.07669
G1 X-31.117 Y59.459 E0.19098
G1 X-33.59 Y58.255 E0.19211
G1 X-36.053 Y57.139 E0.18887
G1 X-38.615 Y56.064 E0.19406
G1 X-41.14 Y55.091 E0.189
G1 X-43.717 Y54.18 E0.19091
G1 X-46.304 Y53.345 E0.18987
G1 X-48.947 Y52.575 E0.19228
G1 X-51.575 Y51.888 E0.18972
G1 X-54.29 Y51.26 E0.19464
G1 X-56.933 Y50.729 E0.18829
G1 X-59.615 Y50.267 E0.19009
G1 X-61.638 Y49.969 E0.14282
G1 X-62.351 Y49.815 E0.05095
G1 X-63.391 Y49.455 E0.07687
G1 X-63.934 Y49.224 E0.04122
G1 X-64.42 Y48.965 E0.03846
G1 X-64.874 Y48.671 E0.03778
G1 X-67.159 Y47.143 E0.19199
G1 X-69.423 Y45.72 E0.18677
G1 X-71.821 Y44.308 E0.19437
G1 X-73.81 Y43.204 E0.15889
G1 X-74.38 Y42.82 E0.048
G1 X-74.751 Y42.46 E0.03611
G1 X-75.063 Y42.047 E0.03615
G1 X-75.307 Y41.591 E0.03612
G1 X-75.478 Y41.103 E0.03612
G1 X-75.572 Y40.594 E0.03615
G1 X-75.599 Y40.014 E0.04055
G1 X-75.6 Y33.91 E0.42634
G1 X-75.59 Y33.204 E0.04932
G1 X-75.562 Y32.518 E0.04795
G1 X-75.467 Y30.829 E0.11816
G1 X-75.391 Y28.1 E0.19068
G1 X-75.391 Y25.39 E0.18928
G1 X-75.471 Y22.609 E0.19432
G1 X-75.584 Y20.456 E0.15059
G1 X-75.6 Y19.92 E0.03745
G1 X-75.6 Y13.91 E0.41978
G1 X-75.59 Y13.204 E0.04932
G1 X-75.562 Y12.518 E0.04795
G1 X-75.467 Y10.829 E0.11816
G1 X-75.391 Y8.1 E0.19068
G1 X-75.391 Y5.39 E0.18928
G1 X-75.471 Y2.609 E0.19432
G1 X-75.584 Y0.456 E0.15059
G1 X-75.6 Y-0.08 E0.03745
G1 X-75.6 Y-6.09 E0.41978
G1 X-75.59 Y-6.796 E0.04932
G1 X-75.562 Y-7.482 E0.04795
G1 X-75.467 Y-9.171 E0.11816
G1 X-75.391 Y-11.9 E0.19068
G1 X-75.391 Y-14.61 E0.18928
G1 X-75.471 Y-17.391 E0.19432
G1 X-75.584 Y-19.544 E0.15059
G1 X-75.6 Y-20.08 E0.03745
G1 X-75.6 Y-26.09 E0.41978
G1 X-75.59 Y-26.796 E0.04932
G1 X-75.562 Y-27.482 E0.04795
G1 X-75.467 Y-29.171 E0.11816
G1 X-75.391 Y-31.9 E0.19068
G1 X-75.391 Y-34.61 E0.18928
G1 X-75.471 Y-37.391 E0.19432
G1 X-75.584 Y-39.544 E0.15059
G1 X-75.6 Y-40.08 E0.03745
G1 X-75.6 Y-46.126 E0.42229
G1 X-75.59 Y-46.791 E0.04645
G1 X-75.542 Y-47.306 E0.03613
G1 X-75.416 Y-47.808 E0.03615
G1 X-75.213 Y-48.284 E0.03614
G1 X-74.94 Y-48.724 E0.03617
G1 X-74.603 Y-49.116 E0.03611
G1 X-74.209 Y-49.451 E0.03612
G1 X-73.629 Y-49.79 E0.04692
G1 X-72.74 Y-50.195 E0.06823
G1 X-71.919 Y-50.552 E0.06253
G1 X-69.462 Y-51.708 E0.18966
G1 X-66.999 Y-52.951 E0.1927
G1 X-64.603 Y-54.249 E0.19033
G1 X-62.242 Y-55.614 E0.19048
G1 X-59.924 Y-57.043 E0.1902
G1 X-57.63 Y-58.548 E0.19163
G1 X-55.36 Y-60.133 E0.19338
G1 X-53.187 Y-61.742 E0.18885
G1 X-51.056 Y-63.416 E0.18927
G1 X-48.932 Y-65.184 E0.19302
G1 X-46.892 Y-66.98 E0.18984
G1 X-44.886 Y-68.851 E0.1916
G1 X-44.174 Y-69.478 E0.06626
G1 X-43.729 Y-69.741 E0.0361
G1 X-43.248 Y-69.932 E0.03615
G1 X-42.744 Y-70.047 E0.03611
G1 X-42.09 Y-70.096 E0.04581
G1 X-40.23 Y-70.1 E0.12991
G1 X-39.532 Y-70.09 E0.04876
G1 X-36.826 Y-69.872 E0.18962
G0 F15000 X-36.767 Y-70.57
G1 F2700 X-34.003 Y-70.413 E0.19337
G1 X-31.338 Y-70.339 E0.18621
G1 X-28.596 Y-70.339 E0.19152
G1 X-25.925 Y-70.416 E0.18664
G1 X-23.166 Y-70.572 E0.19301
G1 X-20.73 Y-70.775 E0.17074
G1 X-19.721 Y-70.8 E0.0705
G1 X-18.4 Y-70.8 E0.09227
G1 X-16.413 Y-70.772 E0.1388
G1 X-13.574 Y-70.766 E0.19829
G1 X-11.998 Y-70.799 E0.1101
G1 X-10.22 Y-70.8 E0.12419
G1 X-9.522 Y-70.79 E0.04876
G1 X-8.997 Y-70.759 E0.03673
G1 X-6.78 Y-70.571 E0.1554
G1 X-4.003 Y-70.413 E0.19428
G1 X-1.338 Y-70.339 E0.18621
G1 X1.404 Y-70.339 E0.19152
G1 X4.075 Y-70.416 E0.18664
G1 X6.834 Y-70.572 E0.19301
G1 X9.27 Y-70.775 E0.17074
G1 X10.279 Y-70.8 E0.0705
G1 X11.6 Y-70.8 E0.09227
G1 X13.587 Y-70.772 E0.1388
G1 X16.426 Y-70.766 E0.19829
G1 X18.002 Y-70.799 E0.1101
G1 X19.78 Y-70.8 E0.12419
G1 X20.478 Y-70.79 E0.04876
G1 X21.003 Y-70.759 E0.03673
G1 X23.22 Y-70.571 E0.1554
G1 X25.997 Y-70.413 E0.19428
G1 X28.662 Y-70.339 E0.18621
G1 X31.404 Y-70.339 E0.19152
G1 X34.075 Y-70.416 E0.18664
G1 X36.834 Y-70.572 E0.19301
G1 X39.27 Y-70.775 E0.17074
G1 X40.279 Y-70.8 E0.0705
G1 X41.601 Y-70.8 E0.09234
G1 X42.302 Y-70.79 E0.04897
G1 X42.869 Y-70.742 E0.03974
G1 X43.423 Y-70.615 E0.0397
G1 X43.954 Y-70.411 E0.03973
G1 X44.452 Y-70.135 E0.03977
G1 X44.999 Y-69.709 E0.04843
G1 X45.693 Y-69.065 E0.06613
G1 X46.525 Y-68.27 E0.08038
G1 X48.544 Y-66.447 E0.19
G1 X50.6 Y-64.695 E0.18867
G1 X52.726 Y-62.984 E0.19061
G1 X54.876 Y-61.351 E0.18857
G1 X57.069 Y-59.782 E0.18834
G1 X59.345 Y-58.248 E0.19171
G1 X61.616 Y-56.811 E0.18771
G1 X63.974 Y-55.41 E0.19157
G1 X66.331 Y-54.096 E0.18848
G1 X68.747 Y-52.84 E0.19019
G1 X71.168 Y-51.666 E0.18793
G1 X73.877 Y-50.448 E0.20746
G1 X74.378 Y-50.179 E0.03972
G1 X74.836 Y-49.842 E0.03972
G1 X75.243 Y-49.444 E0.03976
G1 X75.59 Y-48.994 E0.03969
G1 X75.871 Y-48.499 E0.03976
G1 X76.079 Y-47.969 E0.03977
G1 X76.245 Y-47.164 E0.05741
G1 X76.3 Y-46.42 E0.05211
G1 X76.3 Y-40.42 E0.41908
G1 X76.29 Y-39.696 E0.05057
G1 X76.261 Y-38.989 E0.04942
G1 X76.166 Y-37.294 E0.11858
G1 X76.091 Y-34.617 E0.18705
G1 X76.091 Y-31.875 E0.19152
G1 X76.168 Y-29.182 E0.18817
G1 X76.24 Y-27.741 E0.10077
G1 X76.283 Y-26.996 E0.05212
G1 X76.3 Y-26.42 E0.04025
G1 X76.3 Y-20.42 E0.41908
G1 X76.29 Y-19.696 E0.05057
G1 X76.261 Y-18.989 E0.04942
G1 X76.166 Y-17.294 E0.11858
G1 X76.091 Y-14.617 E0.18705
G1 X76.091 Y-11.875 E0.19152
G1 X76.168 Y-9.182 E0.18817
G1 X76.24 Y-7.741 E0.10077
G1 X76.283 Y-6.996 E0.05212
G1 X76.3 Y-6.42 E0.04025
G1 X76.3 Y-.42 E0.41908
G1 X76.29 Y0.304 E0.05057
G1 X76.261 Y1.011 E0.04942
G1 X76.166 Y2.706 E0.11858
G1 X76.091 Y5.383 E0.18705
G1 X76.091 Y8.125 E0.19152
G1 X76.168 Y10.818 E0.18817
G1 X76.24 Y12.259 E0.10077
G1 X76.283 Y13.004 E0.05212
G1 X76.3 Y13.58 E0.04025
G1 X76.3 Y19.58 E0.41908
G1 X76.29 Y20.304 E0.05057
G1 X76.261 Y21.011 E0.04942
G1 X76.166 Y22.706 E0.11858
G1 X76.091 Y25.383 E0.18705
G1 X76.091 Y28.125 E0.19152
G1 X76.168 Y30.818 E0.18817
G1 X76.24 Y32.259 E0.10077
G1 X76.283 Y33.004 E0.05212
G1 X76.3 Y33.58 E0.04025
G1 X76.3 Y39.57 E0.41838
G1 X76.29 Y40.297 E0.05078
G1 X76.242 Y40.864 E0.03974
G1 X76.115 Y41.418 E0.0397
G1 X75.912 Y41.949 E0.03971
G1 X75.636 Y42.447 E0.03977
G1 X75.294 Y42.901 E0.0397
G1 X74.891 Y43.303 E0.03976
G1 X74.225 Y43.771 E0.05685
G1 X73.115 Y44.395 E0.08894
G1 X70.823 Y45.712 E0.18463
G1 X68.527 Y47.119 E0.18808
G1 X65.055 Y49.394 E0.28993
G1 X64.455 Y49.729 E0.048
G1 X63.613 Y50.137 E0.06535
G1 X62.858 Y50.389 E0.05559
G1 X62.006 Y50.594 E0.06121
G1 X60.15 Y50.941 E0.13188
G1 X57.842 Y51.392 E0.16425
G1 X55.198 Y51.982 E0.18922
G1 X52.532 Y52.656 E0.19207
G1 X49.935 Y53.393 E0.18855
G1 X47.353 Y54.203 E0.18901
G1 X44.781 Y55.092 E0.19007
G1 X42.246 Y56.049 E0.18926
G1 X39.726 Y57.083 E0.19025
G1 X37.248 Y58.183 E0.18937
G1 X34.788 Y59.359 E0.19045
G1 X32.401 Y60.584 E0.1874
G1 X30.504 Y61.618 E0.1509
G1 X29.007 Y62.454 E0.11976
G1 X26.816 Y63.716 E0.1766
G1 X24.527 Y65.119 E0.18752
G1 X21.055 Y67.394 E0.28993
G1 X20.455 Y67.729 E0.048
G1 X19.615 Y68.136 E0.0652
G1 X18.863 Y68.387 E0.05537
G1 X18.008 Y68.593 E0.06143
G1 X17.492 Y68.695 E0.03674
G1 X16.741 Y68.773 E0.05274
G1 X16.109 Y68.794 E0.04417
G1 X14.701 Y68.71 E0.09852
G1 X14.082 Y68.643 E0.04349
G1 X11.777 Y68.35 E0.16229
G1 X9.055 Y68.082 E0.19104
G1 X6.388 Y67.895 E0.18674
G1 X3.654 Y67.782 E0.19112
G1 X0.947 Y67.746 E0.18909
G1 X-1.789 Y67.786 E0.19112
G1 X-4.463 Y67.903 E0.18695
G1 X-7.191 Y68.098 E0.19103
G1 X-9.882 Y68.368 E0.1889
G1 X-11.298 Y68.558 E0.09979
G1 X-12.744 Y68.732 E0.10173
G1 X-13.261 Y68.773 E0.03622
G1 X-13.891 Y68.794 E0.04403
G1 X-15.299 Y68.71 E0.09852
G1 X-16.378 Y68.525 E0.07646
G1 X-17.013 Y68.344 E0.04612
G1 X-17.637 Y68.11 E0.04655
G1 X-18.212 Y67.867 E0.0436
G1 X-18.799 Y67.553 E0.0465
G1 X-19.263 Y67.253 E0.03859
G1 X-21.524 Y65.741 E0.18998
G1 X-23.812 Y64.303 E0.18875
G1 X-26.17 Y62.915 E0.19111
G1 X-28.082 Y61.852 E0.1528
G1 X-28.978 Y61.368 E0.07113
G1 X-31.448 Y60.076 E0.1947
G1 X-33.872 Y58.896 E0.1883
G1 X-36.328 Y57.783 E0.18834
G1 X-38.895 Y56.706 E0.19444
G1 X-41.383 Y55.747 E0.18624
G1 X-43.944 Y54.842 E0.18972
G1 X-46.504 Y54.016 E0.18788
G1 X-49.142 Y53.247 E0.19192
G1 X-51.732 Y52.57 E0.18698
G1 X-54.422 Y51.948 E0.19284
G1 X-57.074 Y51.415 E0.18894
G1 X-59.714 Y50.961 E0.1871
G1 X-61.74 Y50.662 E0.14304
G1 X-62.51 Y50.496 E0.05502
G1 X-63.013 Y50.344 E0.0367
G1 X-63.637 Y50.11 E0.04655
G1 X-64.212 Y49.867 E0.0436
G1 X-64.799 Y49.553 E0.0465
G1 X-65.263 Y49.253 E0.03859
G1 X-67.524 Y47.741 E0.18998
G1 X-69.812 Y46.303 E0.18875
G1 X-72.172 Y44.913 E0.1913
G1 X-74.149 Y43.816 E0.15792
G1 X-74.783 Y43.394 E0.0532
G1 X-75.199 Y43.007 E0.03969
G1 X-75.558 Y42.565 E0.03977
G1 X-75.851 Y42.078 E0.0397
G1 X-76.072 Y41.554 E0.03972
G1 X-76.218 Y41.004 E0.03975
G1 X-76.289 Y40.355 E0.0456
G1 X-76.3 Y33.9 E0.45086
G1 X-76.29 Y33.194 E0.04932
G1 X-76.261 Y32.489 E0.04928
G1 X-76.165 Y30.782 E0.11942
G1 X-76.091 Y28.117 E0.18621
G1 X-76.091 Y25.375 E0.19152
G1 X-76.168 Y22.682 E0.18817
G1 X-76.242 Y21.211 E0.10287
G1 X-76.283 Y20.496 E0.05002
G1 X-76.3 Y19.92 E0.04025
G1 X-76.3 Y13.9 E0.42047
G1 X-76.29 Y13.194 E0.04932
G1 X-76.261 Y12.489 E0.04928
G1 X-76.165 Y10.782 E0.11942
G1 X-76.091 Y8.117 E0.18621
G1 X-76.091 Y5.375 E0.19152
G1 X-76.168 Y2.682 E0.18817
G1 X-76.242 Y1.211 E0.10287
G1 X-76.283 Y0.496 E0.05002
G1 X-76.3 Y-0.08 E0.04025
G1 X-76.3 Y-6.1 E0.42047
G1 X-76.29 Y-6.806 E0.04932
G1 X-76.261 Y-7.511 E0.04928
G1 X-76.165 Y-9.218 E0.11942
G1 X-76.091 Y-11.883 E0.18621
G1 X-76.091 Y-14.625 E0.19152
G1 X-76.168 Y-17.318 E0.18817
G1 X-76.242 Y-18.789 E0.10287
G1 X-76.283 Y-19.504 E0.05002
G1 X-76.3 Y-20.08 E0.04025
G1 X-76.3 Y-26.1 E0.42047
G1 X-76.29 Y-26.806 E0.04932
G1 X-76.261 Y-27.511 E0.04928
G1 X-76.165 Y-29.218 E0.11942
G1 X-76.091 Y-31.883 E0.18621
G1 X-76.091 Y-34.625 E0.19152
G1 X-76.168 Y-37.318 E0.18817
G1 X-76.242 Y-38.789 E0.10287
G1 X-76.283 Y-39.504 E0.05002
G1 X-76.3 Y-40.08 E0.04025
G1 X-76.3 Y-46.137 E0.42306
G1 X-76.29 Y-46.802 E0.04645
G1 X-76.241 Y-47.369 E0.03975
G1 X-76.114 Y-47.923 E0.0397
G1 X-75.91 Y-48.454 E0.03973
G1 X-75.634 Y-48.951 E0.03971
G1 X-75.29 Y-49.405 E0.03978
G1 X-74.887 Y-49.806 E0.03971
G1 X-74.431 Y-50.147 E0.03977
G1 X-73.919 Y-50.427 E0.04076
G1 X-73.03 Y-50.832 E0.06823
G1 X-72.213 Y-51.189 E0.06227
G1 X-69.762 Y-52.341 E0.18916
G1 X-67.308 Y-53.58 E0.19201
G1 X-64.959 Y-54.852 E0.18658
G1 X-62.606 Y-56.213 E0.18986
G1 X-60.279 Y-57.647 E0.19092
G1 X-58.018 Y-59.13 E0.18886
G1 X-55.797 Y-60.681 E0.18921
G1 X-53.616 Y-62.296 E0.18955
G1 X-51.478 Y-63.975 E0.18988
G1 X-49.384 Y-65.718 E0.1903
G1 X-47.356 Y-67.505 E0.18879
G1 X-45.384 Y-69.343 E0.18829
G1 X-44.622 Y-70.019 E0.07115
G1 X-44.138 Y-70.318 E0.03974
