;FLAVOR:RepRap
;TIME:3754
;Filament used: 8.51631m, 0m
;Layer height: 0.2
;Generated with Cura_SteamEngine 3.4.1
T0
M190 S65
M104 S205
M109 S205
M82 ;absolute extrusion mode
M203 Z12000
G28 ;Home
G1 Y-250 Z20 F12000 ;Move the platform down 15mm
G92 E0
G1 E160 F5000 E3
G92 E0
G1 Z0.2
G1 X10. F3000
G1 Z50 F12000
G92 E0
G1 F4200 E-5.6
;LAYER_COUNT:25
;LAYER:0
M107
M203 Z18000
G0 F18000 X-95.75 Y-95.75 Z0.3
;TYPE:WALL-INNER
G1 F4200 E0
G1 F1800 X-95.75 Y95.75 E11.94247
G1 X95.75 Y95.75 E23.88493
G1 X95.75 Y-95.75 E35.8274
G1 X-95.75 Y-95.75 E47.76987
G0 F18000 X94.778 Y-94.778
G0 X98.25 Y98.25
G1 F1800 X-98.25 Y98.25 E60.02415
G1 X-98.25 Y-98.25 E72.27843
G1 X98.25 Y-98.25 E84.53271
G1 X98.25 Y98.25 E96.78699
G0 F18000 X98.75 Y98.75
G1 F1800 X-98.75 Y98.75 E109.10364
G1 X-98.75 Y-98.75 E121.42028
G1 X98.75 Y-98.75 E133.73692
G1 X98.75 Y98.75 E146.05357
G0 F18000 X95.25 Y95.25
G1 F1800 X95.25 Y-95.25 E157.93367
G1 X-95.25 Y-95.25 E169.81378
G1 X-95.25 Y95.25 E181.69388
G1 X95.25 Y95.25 E193.57399
G0 F18000 X94.75 Y94.75
G1 F1800 X94.75 Y-94.75 E205.39173
G1 X-94.75 Y-94.75 E217.20947
G1 X-94.75 Y94.75 E229.02721
G1 X94.75 Y94.75 E240.84495
G0 F18000 X94.82 Y94.82
G0 X99.18 Y99.18
G0 X99.25 Y99.25
G1 F1800 X-99.25 Y99.25 E253.22396
G1 X-99.25 Y-99.25 E265.60297
G1 X99.25 Y-99.25 E277.98197
G1 X99.25 Y99.25 E290.36098
G0 F18000 X99.75 Y99.75
;TYPE:WALL-OUTER
G1 F1800 X-99.75 Y99.75 E302.80235
G1 X-99.75 Y-99.75 E315.24372
G1 X99.75 Y-99.75 E327.68509
G1 X99.75 Y99.75 E340.12646
G0 F18000 X99.4 Y99.75
G0 X99.18 Y99.18
G0 X94.85 Y94.25
G0 X94.25 Y94.25
G1 F1800 X94.25 Y-94.25 E351.88183
G1 X-94.25 Y-94.25 E363.63721
G1 X-94.25 Y94.25 E375.39259
G1 X94.25 Y94.25 E387.14797
G0 F18000 X94.25 Y93.9
G0 X94.85 Y93.9
G0 X96.24 Y96.24
;TYPE:SKIN
G1 F1800 X96.24 Y-96.24 E399.15155
G1 X-96.24 Y-96.24 E411.15514
G1 X-96.24 Y96.24 E423.15872
G1 X96.24 Y96.24 E435.1623
G0 F18000 X97.76 Y97.76
G1 F1800 X-97.76 Y97.76 E447.35547
G1 X-97.76 Y-97.76 E459.54863
G1 X97.76 Y-97.76 E471.7418
G1 X97.76 Y97.76 E483.93496
G0 F18000 X97.169 Y-97.284
G1 F1800 X96.462 Y-97.284 E483.97906
G1 X97.284 Y-96.462 E484.05155
G1 X97.284 Y-95.755 E484.09564
G1 X96.714 Y-96.325 E484.14591
G1 X96.714 Y-96.714 E484.17017
G0 F18000 X96.714 Y-96.325
G1 F1800 X96.714 Y-95.618 E484.21426
G1 X97.284 Y-95.048 E484.26453
G1 X97.284 Y-94.341 E484.30862
G1 X96.714 Y-94.911 E484.35889
G1 X96.714 Y-94.204 E484.40298
G1 X97.284 Y-93.634 E484.45325
G1 X97.284 Y-92.927 E484.49735
G1 X96.714 Y-93.497 E484.54762
G1 X96.714 Y-92.79 E484.59171
G1 X97.284 Y-92.22 E484.64198
G1 X97.284 Y-91.513 E484.68607
G1 X96.714 Y-92.082 E484.73629
G1 X96.714 Y-91.375 E484.78038
G1 X97.284 Y-90.805 E484.83066
G1 X97.284 Y-90.098 E484.87475
G1 X96.714 Y-90.668 E484.92502
G1 X96.714 Y-89.961 E484.96911
G1 X97.284 Y-89.391 E485.01938
G1 X97.284 Y-88.684 E485.06347
G1 X96.714 Y-89.254 E485.11374
G1 X96.714 Y-88.547 E485.15783
G1 X97.284 Y-87.977 E485.2081
G1 X97.284 Y-87.27 E485.25219
G1 X96.714 Y-87.84 E485.30246
G1 X96.714 Y-87.133 E485.34655
G1 X97.284 Y-86.563 E485.39682
G1 X97.284 Y-85.856 E485.44091
G1 X96.714 Y-86.426 E485.49118
G1 X96.714 Y-85.719 E485.53527
G1 X97.284 Y-85.149 E485.58555
G1 X97.284 Y-84.441 E485.6297
G1 X96.714 Y-85.011 E485.67997
G1 X96.714 Y-84.304 E485.72406
G1 X97.284 Y-83.734 E485.77433
G1 X97.284 Y-83.027 E485.81842
G1 X96.714 Y-83.597 E485.86869
G1 X96.714 Y-82.89 E485.91278
G1 X97.284 Y-82.32 E485.96305
G1 X97.284 Y-81.613 E486.00714
G1 X96.714 Y-82.183 E486.05741
G1 X96.714 Y-81.476 E486.1015
G1 X97.284 Y-80.906 E486.15177
G1 X97.284 Y-80.199 E486.19587
G1 X96.714 Y-80.769 E486.24614
G1 X96.714 Y-80.062 E486.29023
G1 X97.284 Y-79.492 E486.3405
G1 X97.284 Y-78.785 E486.38459
G1 X96.714 Y-79.355 E486.43486
G1 X96.714 Y-78.647 E486.47901
G1 X97.284 Y-78.078 E486.52924
G1 X97.284 Y-77.37 E486.57339
G1 X96.714 Y-77.94 E486.62366
G1 X96.714 Y-77.233 E486.66775
G1 X97.284 Y-76.663 E486.71802
G1 X97.284 Y-75.956 E486.76211
G1 X96.714 Y-76.526 E486.81238
G1 X96.714 Y-75.819 E486.85647
G1 X97.284 Y-75.249 E486.90674
G1 X97.284 Y-74.542 E486.95084
G1 X96.714 Y-75.112 E487.00111
G1 X96.714 Y-74.405 E487.0452
G1 X97.284 Y-73.835 E487.09547
G1 X97.284 Y-73.128 E487.13956
G1 X96.714 Y-73.698 E487.18983
G1 X96.714 Y-72.991 E487.23392
G1 X97.284 Y-72.421 E487.28419
G1 X97.284 Y-71.714 E487.32828
G1 X96.714 Y-72.283 E487.37851
G1 X96.714 Y-71.576 E487.4226
G1 X97.284 Y-71.006 E487.47287
G1 X97.284 Y-70.299 E487.51696
G1 X96.714 Y-70.869 E487.56723
G1 X96.714 Y-70.162 E487.61132
G1 X97.284 Y-69.592 E487.66159
G1 X97.284 Y-68.885 E487.70568
G1 X96.714 Y-69.455 E487.75595
G1 X96.714 Y-68.748 E487.80004
G1 X97.284 Y-68.178 E487.85031
G1 X97.284 Y-67.471 E487.8944
G1 X96.714 Y-68.041 E487.94467
G1 X96.714 Y-67.334 E487.98876
G1 X97.284 Y-66.764 E488.03904
G1 X97.284 Y-66.057 E488.08313
G1 X96.714 Y-66.627 E488.1334
G1 X96.714 Y-65.92 E488.17749
G1 X97.284 Y-65.35 E488.22776
G1 X97.284 Y-64.642 E488.27191
G1 X96.714 Y-65.212 E488.32218
G1 X96.714 Y-64.505 E488.36627
G1 X97.284 Y-63.935 E488.41654
G1 X97.284 Y-63.228 E488.46063
G1 X96.714 Y-63.798 E488.5109
G1 X96.714 Y-63.091 E488.55499
G1 X97.284 Y-62.521 E488.60526
G1 X97.284 Y-61.814 E488.64935
G1 X96.714 Y-62.384 E488.69963
G1 X96.714 Y-61.677 E488.74372
G1 X97.284 Y-61.107 E488.79399
G1 X97.284 Y-60.4 E488.83808
G1 X96.714 Y-60.97 E488.88835
G1 X96.714 Y-60.263 E488.93244
G1 X97.284 Y-59.693 E488.98271
G1 X97.284 Y-58.986 E489.0268
G1 X96.714 Y-59.556 E489.07707
G1 X96.714 Y-58.848 E489.12122
G1 X97.284 Y-58.279 E489.17145
G1 X97.284 Y-57.571 E489.2156
G1 X96.714 Y-58.141 E489.26587
G1 X96.714 Y-57.434 E489.30996
G1 X97.284 Y-56.864 E489.36023
G1 X97.284 Y-56.157 E489.40433
G1 X96.714 Y-56.727 E489.4546
G1 X96.714 Y-56.02 E489.49869
G1 X97.284 Y-55.45 E489.54896
G1 X97.284 Y-54.743 E489.59305
G1 X96.714 Y-55.313 E489.64332
G1 X96.714 Y-54.606 E489.68741
G1 X97.284 Y-54.036 E489.73768
G1 X97.284 Y-53.329 E489.78177
G1 X96.714 Y-53.899 E489.83204
G1 X96.714 Y-53.192 E489.87613
G1 X97.284 Y-52.622 E489.9264
G1 X97.284 Y-51.915 E489.97049
G1 X96.714 Y-52.485 E490.02076
G1 X96.714 Y-51.777 E490.06492
G1 X97.284 Y-51.207 E490.11519
G1 X97.284 Y-50.5 E490.15928
G1 X96.714 Y-51.07 E490.20955
G1 X96.714 Y-50.363 E490.25364
G1 X97.284 Y-49.793 E490.30391
G1 X97.284 Y-49.086 E490.348
G1 X96.714 Y-49.656 E490.39827
G1 X96.714 Y-48.949 E490.44236
G1 X97.284 Y-48.379 E490.49263
G1 X97.284 Y-47.672 E490.53672
G1 X96.714 Y-48.242 E490.58699
G1 X96.714 Y-47.535 E490.63108
G1 X97.284 Y-46.965 E490.68135
G1 X97.284 Y-46.258 E490.72544
G1 X96.714 Y-46.828 E490.77571
G1 X96.714 Y-46.121 E490.81981
G1 X97.284 Y-45.551 E490.87008
G1 X97.284 Y-44.844 E490.91417
G1 X96.714 Y-45.413 E490.96439
G1 X96.714 Y-44.706 E491.00848
G1 X97.284 Y-44.136 E491.05875
G1 X97.284 Y-43.429 E491.10284
G1 X96.714 Y-43.999 E491.15312
G1 X96.714 Y-43.292 E491.19721
G1 X97.284 Y-42.722 E491.24748
G1 X97.284 Y-42.015 E491.29157
G1 X96.714 Y-42.585 E491.34184
G1 X96.714 Y-41.878 E491.38593
G1 X97.284 Y-41.308 E491.4362
G1 X97.284 Y-40.601 E491.48029
G1 X96.714 Y-41.171 E491.53056
G1 X96.714 Y-40.464 E491.57465
G1 X97.284 Y-39.894 E491.62492
G1 X97.284 Y-39.187 E491.66901
G1 X96.714 Y-39.757 E491.71928
G1 X96.714 Y-39.049 E491.76344
G1 X97.284 Y-38.48 E491.81366
G1 X97.284 Y-37.772 E491.85782
G1 X96.714 Y-38.342 E491.90809
G1 X96.714 Y-37.635 E491.95218
G1 X97.284 Y-37.065 E492.00245
G1 X97.284 Y-36.358 E492.04654
G1 X96.714 Y-36.928 E492.09681
G1 X96.714 Y-36.221 E492.1409
G1 X97.284 Y-35.651 E492.19117
G1 X97.284 Y-34.944 E492.23526
G1 X96.714 Y-35.514 E492.28553
G1 X96.714 Y-34.807 E492.32962
G1 X97.284 Y-34.237 E492.37989
G1 X97.284 Y-33.53 E492.42398
G1 X96.714 Y-34.1 E492.47425
G1 X96.714 Y-33.393 E492.51834
G1 X97.284 Y-32.823 E492.56861
G1 X97.284 Y-32.116 E492.6127
G1 X96.714 Y-32.686 E492.66298
G1 X96.714 Y-31.978 E492.70713
G1 X97.284 Y-31.408 E492.7574
G1 X97.284 Y-30.701 E492.80149
G1 X96.714 Y-31.271 E492.85176
G1 X96.714 Y-30.564 E492.89585
G1 X97.284 Y-29.994 E492.94612
G1 X97.284 Y-29.287 E492.99021
G1 X96.714 Y-29.857 E493.04048
G1 X96.714 Y-29.15 E493.08457
G1 X97.284 Y-28.58 E493.13484
G1 X97.284 Y-27.873 E493.17893
G1 X96.714 Y-28.443 E493.2292
G1 X96.714 Y-27.736 E493.2733
G1 X97.284 Y-27.166 E493.32357
G1 X97.284 Y-26.459 E493.36766
G1 X96.714 Y-27.029 E493.41793
G1 X96.714 Y-26.322 E493.46202
G1 X97.284 Y-25.752 E493.51229
G1 X97.284 Y-25.045 E493.55638
G1 X96.714 Y-25.614 E493.60661
G1 X96.714 Y-24.907 E493.6507
G1 X97.284 Y-24.337 E493.70097
G1 X97.284 Y-23.63 E493.74506
G1 X96.714 Y-24.2 E493.79533
G1 X96.714 Y-23.493 E493.83942
G1 X97.284 Y-22.923 E493.88969
G1 X97.284 Y-22.216 E493.93378
G1 X96.714 Y-22.786 E493.98405
G1 X96.714 Y-22.079 E494.02814
G1 X97.284 Y-21.509 E494.07841
G1 X97.284 Y-20.802 E494.1225
G1 X96.714 Y-21.372 E494.17277
G1 X96.714 Y-20.665 E494.21686
G1 X97.284 Y-20.095 E494.26713
G1 X97.284 Y-19.388 E494.31122
G1 X96.714 Y-19.958 E494.36149
G1 X96.714 Y-19.25 E494.40565
G1 X97.284 Y-18.681 E494.45587
G1 X97.284 Y-17.973 E494.50003
G1 X96.714 Y-18.543 E494.5503
G1 X96.714 Y-17.836 E494.59439
G1 X97.284 Y-17.266 E494.64466
G1 X97.284 Y-16.559 E494.68875
G1 X96.714 Y-17.129 E494.73902
G1 X96.714 Y-16.422 E494.78311
G1 X97.284 Y-15.852 E494.83338
G1 X97.284 Y-15.145 E494.87747
G1 X96.714 Y-15.715 E494.92774
G1 X96.714 Y-15.008 E494.97183
G1 X97.284 Y-14.438 E495.0221
G1 X97.284 Y-13.731 E495.06619
G1 X96.714 Y-14.301 E495.11647
G1 X96.714 Y-13.594 E495.16056
G1 X97.284 Y-13.024 E495.21083
G1 X97.284 Y-12.317 E495.25492
G1 X96.714 Y-12.887 E495.30519
G1 X96.714 Y-12.179 E495.34934
G1 X97.284 Y-11.609 E495.39961
G1 X97.284 Y-10.902 E495.4437
G1 X96.714 Y-11.472 E495.49397
G1 X96.714 Y-10.765 E495.53806
G1 X97.284 Y-10.195 E495.58833
G1 X97.284 Y-9.488 E495.63242
G1 X96.714 Y-10.058 E495.68269
G1 X96.714 Y-9.351 E495.72679
G1 X97.284 Y-8.781 E495.77706
G1 X97.284 Y-8.074 E495.82115
G1 X96.714 Y-8.644 E495.87142
G1 X96.714 Y-7.937 E495.91551
G1 X97.284 Y-7.367 E495.96578
G1 X97.284 Y-6.66 E496.00987
G1 X96.714 Y-7.23 E496.06014
G1 X96.714 Y-6.523 E496.10423
G1 X97.284 Y-5.953 E496.1545
G1 X97.284 Y-5.246 E496.19859
G1 X96.714 Y-5.815 E496.24882
G1 X96.714 Y-5.108 E496.29291
G1 X97.284 Y-4.538 E496.34318
G1 X97.284 Y-3.831 E496.38727
G1 X96.714 Y-4.401 E496.43754
G1 X96.714 Y-3.694 E496.48163
G1 X97.284 Y-3.124 E496.5319
G1 X97.284 Y-2.417 E496.57599
G1 X96.714 Y-2.987 E496.62626
G1 X96.714 Y-2.28 E496.67035
G1 X97.284 Y-1.71 E496.72062
G1 X97.284 Y-1.003 E496.76471
G1 X96.714 Y-1.573 E496.81498
G1 X96.714 Y-.866 E496.85908
G1 X97.284 Y-.296 E496.90935
G1 X97.284 Y0.41 E496.95337
G1 X96.714 Y-.159 E497.0036
G1 X96.714 Y0.548 E497.04769
G1 X97.284 Y1.117 E497.09792
G1 X97.284 Y1.825 E497.14207
G1 X96.714 Y1.255 E497.19234
G1 X96.714 Y1.962 E497.23643
G1 X97.284 Y2.532 E497.2867
G1 X97.284 Y3.239 E497.33079
G1 X96.714 Y2.669 E497.38106
G1 X96.714 Y3.376 E497.42515
G1 X97.284 Y3.946 E497.47542
G1 X97.284 Y4.653 E497.51952
G1 X96.714 Y4.083 E497.56979
G1 X96.714 Y4.79 E497.61388
G1 X97.284 Y5.36 E497.66415
G1 X97.284 Y6.067 E497.70824
G1 X96.714 Y5.497 E497.75851
G1 X96.714 Y6.204 E497.8026
G1 X97.284 Y6.774 E497.85287
G1 X97.284 Y7.481 E497.89696
G1 X96.714 Y6.911 E497.94723
G1 X96.714 Y7.619 E497.99138
G1 X97.284 Y8.189 E498.04165
G1 X97.284 Y8.896 E498.08574
G1 X96.714 Y8.326 E498.13602
G1 X96.714 Y9.033 E498.18011
G1 X97.284 Y9.603 E498.23038
G1 X97.284 Y10.31 E498.27447
G1 X96.714 Y9.74 E498.32474
G1 X96.714 Y10.447 E498.36883
G1 X97.284 Y11.017 E498.4191
G1 X97.284 Y11.724 E498.46319
G1 X96.714 Y11.154 E498.51346
G1 X96.714 Y11.861 E498.55755
G1 X97.284 Y12.431 E498.60782
G1 X97.284 Y13.138 E498.65191
G1 X96.714 Y12.568 E498.70218
G1 X96.714 Y13.275 E498.74627
G1 X97.284 Y13.845 E498.79654
G1 X97.284 Y14.552 E498.84063
G1 X96.714 Y13.983 E498.89086
G1 X96.714 Y14.69 E498.93495
G1 X97.284 Y15.26 E498.98522
G1 X97.284 Y15.967 E499.02931
G1 X96.714 Y15.397 E499.07958
G1 X96.714 Y16.104 E499.12367
G1 X97.284 Y16.674 E499.17394
G1 X97.284 Y17.381 E499.21804
G1 X96.714 Y16.811 E499.26831
G1 X96.714 Y17.518 E499.3124
G1 X97.284 Y18.088 E499.36267
G1 X97.284 Y18.795 E499.40676
G1 X96.714 Y18.225 E499.45703
G1 X96.714 Y18.932 E499.50112
G1 X97.284 Y19.502 E499.55139
G1 X97.284 Y20.209 E499.59548
G1 X96.714 Y19.639 E499.64575
G1 X96.714 Y20.346 E499.68984
G1 X97.284 Y20.916 E499.74011
G1 X97.284 Y21.624 E499.78426
G1 X96.714 Y21.054 E499.83454
G1 X96.714 Y21.761 E499.87863
G1 X97.284 Y22.331 E499.9289
G1 X97.284 Y23.038 E499.97299
G1 X96.714 Y22.468 E500.02326
G1 X96.714 Y23.175 E500.06735
G1 X97.284 Y23.745 E500.11762
G1 X97.284 Y24.452 E500.16171
G1 X96.714 Y23.882 E500.21198
G1 X96.714 Y24.589 E500.25607
G1 X97.284 Y25.159 E500.30634
G1 X97.284 Y25.866 E500.35043
G1 X96.714 Y25.296 E500.4007
G1 X96.714 Y26.003 E500.44479
G1 X97.284 Y26.573 E500.49506
G1 X97.284 Y27.28 E500.53915
G1 X96.714 Y26.71 E500.58942
G1 X96.714 Y27.418 E500.63358
G1 X97.284 Y27.987 E500.6838
G1 X97.284 Y28.695 E500.72796
G1 X96.714 Y28.125 E500.77823
G1 X96.714 Y28.832 E500.82232
G1 X97.284 Y29.402 E500.87259
G1 X97.284 Y30.109 E500.91668
G1 X96.714 Y29.539 E500.96695
G1 X96.714 Y30.246 E501.01104
G1 X97.284 Y30.816 E501.06131
G1 X97.284 Y31.523 E501.1054
G1 X96.714 Y30.953 E501.15567
G1 X96.714 Y31.66 E501.19976
G1 X97.284 Y32.23 E501.25003
G1 X97.284 Y32.937 E501.29412
G1 X96.714 Y32.367 E501.3444
G1 X96.714 Y33.074 E501.38849
G1 X97.284 Y33.644 E501.43876
G1 X97.284 Y34.351 E501.48285
G1 X96.714 Y33.782 E501.53307
G1 X96.714 Y34.489 E501.57716
G1 X97.284 Y35.059 E501.62743
G1 X97.284 Y35.766 E501.67153
G1 X96.714 Y35.196 E501.7218
G1 X96.714 Y35.903 E501.76589
G1 X97.284 Y36.473 E501.81616
G1 X97.284 Y37.18 E501.86025
G1 X96.714 Y36.61 E501.91052
G1 X96.714 Y37.317 E501.95461
G1 X97.284 Y37.887 E502.00488
G1 X97.284 Y38.594 E502.04897
G1 X96.714 Y38.024 E502.09924
G1 X96.714 Y38.731 E502.14333
G1 X97.284 Y39.301 E502.1936
G1 X97.284 Y40.008 E502.23769
G1 X96.714 Y39.438 E502.28796
G1 X96.714 Y40.145 E502.33205
G1 X97.284 Y40.715 E502.38232
G1 X97.284 Y41.423 E502.42648
G1 X96.714 Y40.853 E502.47675
G1 X96.714 Y41.56 E502.52084
G1 X97.284 Y42.13 E502.57111
G1 X97.284 Y42.837 E502.6152
G1 X96.714 Y42.267 E502.66547
G1 X96.714 Y42.974 E502.70956
G1 X97.284 Y43.544 E502.75983
G1 X97.284 Y44.251 E502.80392
G1 X96.714 Y43.681 E502.85419
G1 X96.714 Y44.388 E502.89828
G1 X97.284 Y44.958 E502.94855
G1 X97.284 Y45.665 E502.99264
G1 X96.714 Y45.095 E503.04291
G1 X96.714 Y45.802 E503.08701
G1 X97.284 Y46.372 E503.13728
G1 X97.284 Y47.079 E503.18137
G1 X96.714 Y46.509 E503.23164
G1 X96.714 Y47.217 E503.27579
G1 X97.284 Y47.786 E503.32602
G1 X97.284 Y48.494 E503.37017
G1 X96.714 Y47.924 E503.42044
G1 X96.714 Y48.631 E503.46453
G1 X97.284 Y49.201 E503.5148
G1 X97.284 Y49.908 E503.55889
G1 X96.714 Y49.338 E503.60916
G1 X96.714 Y50.045 E503.65325
G1 X97.284 Y50.615 E503.70352
G1 X97.284 Y51.322 E503.74761
G1 X96.714 Y50.752 E503.79788
G1 X96.714 Y51.459 E503.84198
G1 X97.284 Y52.029 E503.89225
G1 X97.284 Y52.736 E503.93634
G1 X96.714 Y52.166 E503.98661
G1 X96.714 Y52.873 E504.0307
G1 X97.284 Y53.443 E504.08097
G1 X97.284 Y54.15 E504.12506
G1 X96.714 Y53.581 E504.17529
G1 X96.714 Y54.288 E504.21938
G1 X97.284 Y54.858 E504.26965
G1 X97.284 Y55.565 E504.31374
G1 X96.714 Y54.995 E504.36401
G1 X96.714 Y55.702 E504.4081
G1 X97.284 Y56.272 E504.45837
G1 X97.284 Y56.979 E504.50246
G1 X96.714 Y56.409 E504.55273
G1 X96.714 Y57.116 E504.59682
G1 X97.284 Y57.686 E504.64709
G1 X97.284 Y58.393 E504.69118
G1 X96.714 Y57.823 E504.74145
G1 X96.714 Y58.53 E504.78554
G1 X97.284 Y59.1 E504.83581
G1 X97.284 Y59.807 E504.8799
G1 X96.714 Y59.237 E504.93018
G1 X96.714 Y59.944 E504.97427
G1 X97.284 Y60.514 E505.02454
G1 X97.284 Y61.222 E505.06869
G1 X96.714 Y60.652 E505.11896
G1 X96.714 Y61.359 E505.16305
G1 X97.284 Y61.929 E505.21332
G1 X97.284 Y62.636 E505.25741
G1 X96.714 Y62.066 E505.30768
G1 X96.714 Y62.773 E505.35177
G1 X97.284 Y63.343 E505.40204
G1 X97.284 Y64.05 E505.44613
G1 X96.714 Y63.48 E505.4964
G1 X96.714 Y64.187 E505.5405
G1 X97.284 Y64.757 E505.59077
